; G-Code generated by Simplify3D(R) Version 4.0.1
; Jul 13, 2018 at 7:16:02 PM
; Settings Summary
;   processName,Process1
;   applyToModels,breakable_rec t
;   profileName,BIQU-M (modified)
;   profileVersion,2018-05-21 13:09:20
;   baseProfile,Default
;   printMaterial,PLA
;   printQuality,Medium
;   printExtruders,
;   extruderName,Extruder 1
;   extruderToolheadNumber,0
;   extruderDiameter,0.4
;   extruderAutoWidth,0
;   extruderWidth,0.4
;   extrusionMultiplier,0.95
;   extruderUseRetract,1
;   extruderRetractionDistance,1
;   extruderExtraRestartDistance,0
;   extruderRetractionZLift,0
;   extruderRetractionSpeed,1800
;   extruderUseCoasting,0
;   extruderCoastingDistance,0.2
;   extruderUseWipe,0
;   extruderWipeDistance,5
;   primaryExtruder,0
;   layerHeight,0.2
;   topSolidLayers,5
;   bottomSolidLayers,3
;   perimeterOutlines,2
;   printPerimetersInsideOut,1
;   startPointOption,2
;   startPointOriginX,0
;   startPointOriginY,0
;   sequentialIslands,0
;   spiralVaseMode,0
;   firstLayerHeightPercentage,200
;   firstLayerWidthPercentage,100
;   firstLayerUnderspeed,0.35
;   useRaft,0
;   raftExtruder,0
;   raftTopLayers,3
;   raftBaseLayers,2
;   raftOffset,3
;   raftSeparationDistance,0.14
;   raftTopInfill,100
;   aboveRaftSpeedMultiplier,0.3
;   useSkirt,0
;   skirtExtruder,0
;   skirtLayers,1
;   skirtOutlines,2
;   skirtOffset,4
;   usePrimePillar,0
;   primePillarExtruder,999
;   primePillarWidth,12
;   primePillarLocation,7
;   primePillarSpeedMultiplier,1
;   useOozeShield,0
;   oozeShieldExtruder,999
;   oozeShieldOffset,2
;   oozeShieldOutlines,1
;   oozeShieldSidewallShape,1
;   oozeShieldSidewallAngle,30
;   oozeShieldSpeedMultiplier,1
;   infillExtruder,0
;   internalInfillPattern,Rectilinear
;   externalInfillPattern,Rectilinear
;   infillPercentage,0
;   outlineOverlapPercentage,15
;   infillExtrusionWidthPercentage,100
;   minInfillLength,5
;   infillLayerInterval,1
;   internalInfillAngles,45,-45
;   overlapInternalInfillAngles,1
;   externalInfillAngles,45,-45
;   generateSupport,0
;   supportExtruder,0
;   supportInfillPercentage,30
;   supportExtraInflation,0
;   supportBaseLayers,0
;   denseSupportExtruder,0
;   denseSupportLayers,0
;   denseSupportInfillPercentage,70
;   supportLayerInterval,1
;   supportHorizontalPartOffset,0.3
;   supportUpperSeparationLayers,1
;   supportLowerSeparationLayers,1
;   supportType,0
;   supportGridSpacing,4
;   maxOverhangAngle,45
;   supportAngles,0
;   temperatureName,Extruder 1
;   temperatureNumber,0
;   temperatureSetpointCount,1
;   temperatureSetpointLayers,1
;   temperatureSetpointTemperatures,190
;   temperatureStabilizeAtStartup,1
;   temperatureHeatedBed,0
;   temperatureRelayBetweenLayers,0
;   temperatureRelayBetweenLoops,0
;   fanLayers,1,2
;   fanSpeeds,0,100
;   blipFanToFullPower,0
;   adjustSpeedForCooling,1
;   minSpeedLayerTime,15
;   minCoolingSpeedSlowdown,20
;   increaseFanForCooling,0
;   minFanLayerTime,45
;   maxCoolingFanSpeed,100
;   increaseFanForBridging,0
;   bridgingFanSpeed,100
;   use5D,1
;   relativeEdistances,0
;   allowEaxisZeroing,1
;   independentExtruderAxes,0
;   includeM10123,0
;   stickySupport,1
;   applyToolheadOffsets,0
;   gcodeXoffset,0
;   gcodeYoffset,0
;   gcodeZoffset,-0.1
;   overrideMachineDefinition,1
;   machineTypeOverride,1
;   strokeXoverride,100
;   strokeYoverride,100
;   strokeZoverride,100
;   originOffsetXoverride,50
;   originOffsetYoverride,50
;   originOffsetZoverride,0
;   homeXdirOverride,0
;   homeYdirOverride,0
;   homeZdirOverride,1
;   flipXoverride,1
;   flipYoverride,-1
;   flipZoverride,1
;   toolheadOffsets,0,0|0,0|0,0|0,0|0,0|0,0
;   overrideFirmwareConfiguration,1
;   firmwareTypeOverride,RepRap (Marlin/Repetier/Sprinter)
;   GPXconfigOverride,r2
;   baudRateOverride,115200
;   overridePrinterModels,0
;   printerModelsOverride
;   startingGcode,G28 ; home all axes
;   layerChangeGcode,
;   retractionGcode,
;   toolChangeGcode,
;   endingGcode,M104 S0 ; turn off extruder,M140 S0 ; turn off bed,M84 ; disable motors,G28 ; home all axes
;   exportFileFormat,gcode
;   celebration,0
;   celebrationSong,Star Wars
;   postProcessing,
;   defaultSpeed,3600
;   outlineUnderspeed,0.5
;   solidInfillUnderspeed,0.8
;   supportUnderspeed,0.8
;   rapidXYspeed,4800
;   rapidZspeed,1002
;   minBridgingArea,50
;   bridgingExtraInflation,0
;   bridgingExtrusionMultiplier,1
;   bridgingSpeedMultiplier,1
;   useFixedBridgingAngle,0
;   fixedBridgingAngle,0
;   applyBridgingToPerimeters,0
;   filamentDiameters,1.75|1.75|1.75|1.75|1.75|1.75
;   filamentPricesPerKg,46|46|46|46|46|46
;   filamentDensities,1.25|1.25|1.25|1.25|1.25|1.25
;   useMinPrintHeight,0
;   minPrintHeight,0
;   useMaxPrintHeight,0
;   maxPrintHeight,10
;   useDiaphragm,0
;   diaphragmLayerInterval,20
;   robustSlicing,1
;   mergeAllIntoSolid,0
;   onlyRetractWhenCrossingOutline,1
;   retractBetweenLayers,1
;   useRetractionMinTravel,0
;   retractionMinTravel,3
;   retractWhileWiping,0
;   onlyWipeOutlines,1
;   avoidCrossingOutline,1
;   maxMovementDetourFactor,3
;   toolChangeRetractionDistance,12
;   toolChangeExtraRestartDistance,-0.5
;   toolChangeRetractionSpeed,600
;   externalThinWallType,0
;   internalThinWallType,2
;   thinWallAllowedOverlapPercentage,10
;   singleExtrusionMinLength,1
;   singleExtrusionMinPrintingWidthPercentage,50
;   singleExtrusionMaxPrintingWidthPercentage,200
;   singleExtrusionEndpointExtension,0.2
;   horizontalSizeCompensation,0
G90
M82
M106 S0
M104 S190 T0
M109 S190 T0
G28 ; home all axes
G92 E0
G1 E-1.0000 F1800
G1 Z0.300 F1002
; process Process1
; layer 1, Z = 0.400
T0
; tool H0.400 W0.400
; inner perimeter
G1 X-0.266 Y-2.900 F4800
G1 E0.0000 F540
G92 E0
G1 X1.074 Y-2.900 E0.0847 F945
G1 X1.074 Y-5.900 E0.2743
G1 X19.380 Y-5.900 E1.4311
G1 X19.380 Y-2.900 E1.6207
G1 X20.721 Y-2.900 E1.7054
G1 X20.721 Y-5.900 E1.8950
G1 X37.109 Y-5.900 E2.9306
G1 X37.109 Y-2.900 E3.1202
G1 X38.463 Y-2.900 E3.2058
G1 X38.463 Y-5.900 E3.3954
G1 X49.330 Y-5.900 E4.0821
G1 X49.330 Y-2.900 E4.2717
G1 X49.400 Y-2.900 E4.2761
G1 X49.400 Y5.900 E4.8322
G1 X-49.400 Y5.900 E11.0758
G1 X-49.400 Y-2.900 E11.6319
G1 X-48.752 Y-2.900 E11.6729
G1 X-48.752 Y-5.900 E11.8624
G1 X-30.841 Y-5.900 E12.9943
G1 X-30.841 Y-2.900 E13.1839
G1 X-29.500 Y-2.900 E13.2686
G1 X-29.500 Y-5.900 E13.4582
G1 X-17.835 Y-5.900 E14.1954
G1 X-17.835 Y-2.900 E14.3850
G1 X-16.494 Y-2.900 E14.4697
G1 X-16.494 Y-5.900 E14.6593
G1 X-0.266 Y-5.900 E15.6848
G1 X-0.266 Y-2.900 E15.8744
; outer perimeter
G1 X0.134 Y-3.300 F4800
G92 E0
G1 X0.674 Y-3.300 E0.0342 F630
G1 X0.674 Y-6.300 E0.2237
G1 X19.780 Y-6.300 E1.4311
G1 X19.780 Y-3.300 E1.6207
G1 X20.321 Y-3.300 E1.6549
G1 X20.321 Y-6.300 E1.8444
G1 X37.509 Y-6.300 E2.9306
G1 X37.509 Y-3.300 E3.1202
G1 X38.063 Y-3.300 E3.1553
G1 X38.063 Y-6.300 E3.3448
G1 X49.730 Y-6.300 E4.0821
G1 X49.730 Y-3.300 E4.2717
G1 X49.800 Y-3.300 E4.2761
G1 X49.800 Y6.300 E4.8828
G1 X-49.800 Y6.300 E11.1769
G1 X-49.800 Y-3.300 E11.7836
G1 X-49.152 Y-3.300 E11.8245
G1 X-49.152 Y-6.300 E12.0141
G1 X-30.441 Y-6.300 E13.1965
G1 X-30.441 Y-3.300 E13.3861
G1 X-29.900 Y-3.300 E13.4203
G1 X-29.900 Y-6.300 E13.6099
G1 X-17.435 Y-6.300 E14.3976
G1 X-17.435 Y-3.300 E14.5872
G1 X-16.894 Y-3.300 E14.6214
G1 X-16.894 Y-6.300 E14.8110
G1 X0.134 Y-6.300 E15.8870
G1 X0.134 Y-3.300 E16.0766
; solid layer
G1 X-0.606 Y-5.132 F4800
G92 E0
G1 X-1.035 Y-5.560 E0.0383 F1008
G1 X-1.600 Y-5.560 E0.0740
G1 X-0.606 Y-4.566 E0.1629
G1 X-0.606 Y-4.000 E0.1986
G1 X-2.166 Y-5.560 E0.3380
G1 X-2.732 Y-5.560 E0.3738
G1 X-0.606 Y-3.434 E0.5637
G1 X-0.606 Y-2.869 E0.5995
G1 X-3.297 Y-5.560 E0.8400
G1 X-3.863 Y-5.560 E0.8757
G1 X7.257 Y5.560 E1.8695
G1 X7.823 Y5.560 E1.9053
G1 X-0.297 Y-2.560 E2.6310
G1 X0.268 Y-2.560 E2.6667
G1 X8.388 Y5.560 E3.3924
G1 X8.954 Y5.560 E3.4282
G1 X0.834 Y-2.560 E4.1538
G1 X1.400 Y-2.560 E4.1896
G1 X9.520 Y5.560 E4.9153
G1 X10.085 Y5.560 E4.9510
G1 X1.414 Y-3.111 E5.7260
G1 X1.414 Y-3.677 E5.7617
G1 X10.651 Y5.560 E6.5872
G1 X11.217 Y5.560 E6.6229
G1 X1.414 Y-4.242 E7.4990
G1 X1.414 Y-4.808 E7.5347
G1 X11.783 Y5.560 E8.4613
G1 X12.348 Y5.560 E8.4971
G1 X1.414 Y-5.374 E9.4742
G1 X1.414 Y-5.560 E9.4860
G1 X1.794 Y-5.560 E9.5100
G1 X12.914 Y5.560 E10.5038
G1 X13.480 Y5.560 E10.5395
G1 X2.360 Y-5.560 E11.5333
G1 X2.925 Y-5.560 E11.5691
G1 X14.045 Y5.560 E12.5629
G1 X14.611 Y5.560 E12.5986
G1 X3.491 Y-5.560 E13.5924
G1 X4.057 Y-5.560 E13.6281
G1 X15.177 Y5.560 E14.6219
G1 X15.742 Y5.560 E14.6577
G1 X4.622 Y-5.560 E15.6515
G1 X5.188 Y-5.560 E15.6872
G1 X16.308 Y5.560 E16.6810
G1 X16.874 Y5.560 E16.7168
G1 X5.754 Y-5.560 E17.7106
G1 X6.319 Y-5.560 E17.7463
G1 X17.439 Y5.560 E18.7401
G1 X18.005 Y5.560 E18.7759
G1 X6.885 Y-5.560 E19.7697
G1 X7.451 Y-5.560 E19.8054
G1 X18.571 Y5.560 E20.7992
G1 X19.136 Y5.560 E20.8350
G1 X8.016 Y-5.560 E21.8288
G1 X8.582 Y-5.560 E21.8645
G1 X19.702 Y5.560 E22.8583
G1 X20.268 Y5.560 E22.8940
G1 X9.148 Y-5.560 E23.8878
G1 X9.714 Y-5.560 E23.9236
G1 X20.834 Y5.560 E24.9174
G1 X21.399 Y5.560 E24.9531
G1 X10.279 Y-5.560 E25.9469
G1 X10.845 Y-5.560 E25.9827
G1 X21.965 Y5.560 E26.9765
G1 X22.531 Y5.560 E27.0122
G1 X11.411 Y-5.560 E28.0060
G1 X11.976 Y-5.560 E28.0418
G1 X23.096 Y5.560 E29.0356
G1 X23.662 Y5.560 E29.0713
G1 X12.542 Y-5.560 E30.0651
G1 X13.108 Y-5.560 E30.1009
G1 X24.228 Y5.560 E31.0947
G1 X24.793 Y5.560 E31.1304
G1 X13.673 Y-5.560 E32.1242
G1 X14.239 Y-5.560 E32.1599
G1 X25.359 Y5.560 E33.1537
G1 X25.925 Y5.560 E33.1895
G1 X14.805 Y-5.560 E34.1833
G1 X15.370 Y-5.560 E34.2190
G1 X26.490 Y5.560 E35.2128
G1 X27.056 Y5.560 E35.2486
G1 X15.936 Y-5.560 E36.2424
G1 X18.764 Y-5.560 F4800
G92 E0
G1 X19.040 Y-5.284 E0.0247 F1008
G1 X19.040 Y-4.718 E0.0604
G1 X18.199 Y-5.560 E0.1356
G1 X17.633 Y-5.560 E0.1714
G1 X19.040 Y-4.153 E0.2972
G1 X19.040 Y-3.587 E0.3329
G1 X17.067 Y-5.560 E0.5092
G1 X16.502 Y-5.560 E0.5450
G1 X19.040 Y-3.021 E0.7719
G1 X19.040 Y-2.560 E0.8010
G1 X19.502 Y-2.560 E0.8302
G1 X27.622 Y5.560 E1.5558
G1 X28.187 Y5.560 E1.5916
G1 X20.067 Y-2.560 E2.3173
G1 X20.633 Y-2.560 E2.3530
G1 X28.753 Y5.560 E3.0787
G1 X29.319 Y5.560 E3.1145
G1 X21.061 Y-2.698 E3.8525
G1 X21.061 Y-3.264 E3.8882
G1 X29.884 Y5.560 E4.6768
G1 X30.450 Y5.560 E4.7125
G1 X21.061 Y-3.829 E5.5517
G1 X21.061 Y-4.395 E5.5874
G1 X31.016 Y5.560 E6.4771
G1 X31.582 Y5.560 E6.5129
G1 X21.061 Y-4.961 E7.4531
G1 X21.061 Y-5.526 E7.4888
G1 X32.147 Y5.560 E8.4796
G1 X32.713 Y5.560 E8.5154
G1 X21.593 Y-5.560 E9.5092
G1 X22.159 Y-5.560 E9.5449
G1 X33.279 Y5.560 E10.5387
G1 X33.844 Y5.560 E10.5745
G1 X22.724 Y-5.560 E11.5683
G1 X23.290 Y-5.560 E11.6040
G1 X34.410 Y5.560 E12.5978
G1 X34.976 Y5.560 E12.6336
G1 X23.856 Y-5.560 E13.6274
G1 X24.421 Y-5.560 E13.6631
G1 X35.541 Y5.560 E14.6569
G1 X36.107 Y5.560 E14.6926
G1 X24.987 Y-5.560 E15.6864
G1 X25.553 Y-5.560 E15.7222
G1 X36.673 Y5.560 E16.7160
G1 X37.238 Y5.560 E16.7517
G1 X26.118 Y-5.560 E17.7455
G1 X26.684 Y-5.560 E17.7813
G1 X37.804 Y5.560 E18.7751
G1 X38.370 Y5.560 E18.8108
G1 X27.250 Y-5.560 E19.8046
G1 X27.815 Y-5.560 E19.8404
G1 X38.935 Y5.560 E20.8342
G1 X39.501 Y5.560 E20.8699
G1 X28.381 Y-5.560 E21.8637
G1 X28.947 Y-5.560 E21.8995
G1 X40.067 Y5.560 E22.8933
G1 X40.633 Y5.560 E22.9290
G1 X29.513 Y-5.560 E23.9228
G1 X30.078 Y-5.560 E23.9585
G1 X41.198 Y5.560 E24.9523
G1 X41.764 Y5.560 E24.9881
G1 X30.644 Y-5.560 E25.9819
G1 X31.210 Y-5.560 E26.0176
G1 X42.330 Y5.560 E27.0114
G1 X42.895 Y5.560 E27.0472
G1 X31.775 Y-5.560 E28.0410
G1 X32.341 Y-5.560 E28.0767
G1 X43.461 Y5.560 E29.0705
G1 X44.027 Y5.560 E29.1063
G1 X32.907 Y-5.560 E30.1001
G1 X36.769 Y-5.092 F4800
G92 E0
G1 X36.301 Y-5.560 E0.0418 F1008
G1 X35.735 Y-5.560 E0.0776
G1 X36.769 Y-4.526 E0.1700
G1 X36.769 Y-3.961 E0.2057
G1 X35.169 Y-5.560 E0.3487
G1 X34.604 Y-5.560 E0.3844
G1 X36.769 Y-3.395 E0.5779
G1 X36.769 Y-2.829 E0.6137
G1 X34.038 Y-5.560 E0.8577
G1 X33.472 Y-5.560 E0.8935
G1 X44.592 Y5.560 E1.8873
G1 X45.158 Y5.560 E1.9230
G1 X37.038 Y-2.560 E2.6487
G1 X37.604 Y-2.560 E2.6845
G1 X45.724 Y5.560 E3.4101
G1 X46.289 Y5.560 E3.4459
G1 X38.169 Y-2.560 E4.1716
G1 X38.735 Y-2.560 E4.2073
G1 X46.855 Y5.560 E4.9330
G1 X47.421 Y5.560 E4.9688
G1 X38.803 Y-3.057 E5.7389
G1 X38.803 Y-3.623 E5.7746
G1 X47.986 Y5.560 E6.5953
G1 X48.552 Y5.560 E6.6311
G1 X38.803 Y-4.189 E7.5023
G1 X38.803 Y-4.754 E7.5381
G1 X49.060 Y5.502 E8.4547
G1 X49.060 Y4.937 E8.4904
G1 X38.803 Y-5.320 E9.4071
G1 X38.803 Y-5.560 E9.4222
G1 X39.129 Y-5.560 E9.4428
G1 X49.060 Y4.371 E10.3303
G1 X49.060 Y3.805 E10.3661
G1 X39.695 Y-5.560 E11.2030
G1 X40.261 Y-5.560 E11.2388
G1 X49.060 Y3.239 E12.0252
G1 X49.060 Y2.674 E12.0609
G1 X40.826 Y-5.560 E12.7968
G1 X41.392 Y-5.560 E12.8326
G1 X49.060 Y2.108 E13.5178
G1 X49.060 Y1.542 E13.5536
G1 X41.958 Y-5.560 E14.1883
G1 X42.523 Y-5.560 E14.2241
G1 X49.060 Y0.977 E14.8083
G1 X49.060 Y0.411 E14.8440
G1 X43.089 Y-5.560 E15.3777
G1 X43.655 Y-5.560 E15.4134
G1 X49.060 Y-0.155 E15.8965
G1 X49.060 Y-0.720 E15.9322
G1 X44.220 Y-5.560 E16.3648
G1 X44.786 Y-5.560 E16.4005
G1 X49.060 Y-1.286 E16.7825
G1 X49.060 Y-1.852 E16.8182
G1 X45.352 Y-5.560 E17.1496
G1 X45.917 Y-5.560 E17.1854
G1 X49.060 Y-2.417 E17.4662
G1 X49.060 Y-2.560 E17.4752
G1 X48.990 Y-2.560 E17.4797
G1 X48.990 Y-3.053 E17.5108
G1 X46.483 Y-5.560 E17.7349
G1 X47.049 Y-5.560 E17.7706
G1 X48.990 Y-3.619 E17.9441
G1 X48.990 Y-4.184 E17.9799
G1 X47.614 Y-5.560 E18.1028
G1 X48.180 Y-5.560 E18.1385
G1 X48.990 Y-4.750 E18.2109
G1 X48.990 Y-5.316 E18.2467
G1 X48.746 Y-5.560 E18.2685
G92 E0
G1 E-1.0000 F1800
G1 X-4.429 Y-5.560 F4800
G1 E0.0000 F1800
G92 E0
G1 X6.691 Y5.560 E0.9938 F1008
G1 X6.126 Y5.560 E1.0295
G1 X-4.994 Y-5.560 E2.0233
G1 X-5.560 Y-5.560 E2.0591
G1 X5.560 Y5.560 E3.0529
G1 X4.994 Y5.560 E3.0886
G1 X-6.126 Y-5.560 E4.0824
G1 X-6.691 Y-5.560 E4.1182
G1 X4.429 Y5.560 E5.1120
G1 X3.863 Y5.560 E5.1477
G1 X-7.257 Y-5.560 E6.1415
G1 X-7.823 Y-5.560 E6.1773
G1 X3.297 Y5.560 E7.1711
G1 X2.732 Y5.560 E7.2068
G1 X-8.388 Y-5.560 E8.2006
G1 X-8.954 Y-5.560 E8.2364
G1 X2.166 Y5.560 E9.2302
G1 X1.600 Y5.560 E9.2659
G1 X-9.520 Y-5.560 E10.2597
G1 X-10.085 Y-5.560 E10.2954
G1 X1.035 Y5.560 E11.2892
G1 X0.469 Y5.560 E11.3250
G1 X-10.651 Y-5.560 E12.3188
G1 X-11.217 Y-5.560 E12.3545
G1 X-0.097 Y5.560 E13.3483
G1 X-0.663 Y5.560 E13.3841
G1 X-11.783 Y-5.560 E14.3779
G1 X-12.348 Y-5.560 E14.4136
G1 X-1.228 Y5.560 E15.4074
G1 X-1.794 Y5.560 E15.4432
G1 X-12.914 Y-5.560 E16.4370
G1 X-13.480 Y-5.560 E16.4727
G1 X-2.360 Y5.560 E17.4665
G1 X-2.925 Y5.560 E17.5023
G1 X-14.045 Y-5.560 E18.4961
G1 X-14.611 Y-5.560 E18.5318
G1 X-3.491 Y5.560 E19.5256
G1 X-4.057 Y5.560 E19.5613
G1 X-15.177 Y-5.560 E20.5551
G1 X-15.742 Y-5.560 E20.5909
G1 X-4.622 Y5.560 E21.5847
G1 X-5.188 Y5.560 E21.6204
G1 X-16.154 Y-5.406 E22.6004
G1 X-16.154 Y-4.840 E22.6362
G1 X-5.754 Y5.560 E23.5657
G1 X-6.319 Y5.560 E23.6014
G1 X-16.154 Y-4.274 E24.4803
G1 X-16.154 Y-3.709 E24.5161
G1 X-6.885 Y5.560 E25.3444
G1 X-7.451 Y5.560 E25.3802
G1 X-16.154 Y-3.143 E26.1579
G1 X-16.154 Y-2.577 E26.1937
G1 X-8.016 Y5.560 E26.9209
G1 X-8.582 Y5.560 E26.9567
G1 X-16.702 Y-2.560 E27.6824
G1 X-17.268 Y-2.560 E27.7181
G1 X-9.148 Y5.560 E28.4438
G1 X-9.713 Y5.560 E28.4796
G1 X-17.833 Y-2.560 E29.2052
G1 X-18.175 Y-2.560 E29.2268
G1 X-18.175 Y-2.901 E29.2484
G1 X-20.833 Y-5.560 E29.4860
G1 X-20.268 Y-5.560 E29.5217
G1 X-18.175 Y-3.467 E29.7088
G1 X-18.175 Y-4.033 E29.7445
G1 X-19.702 Y-5.560 E29.8810
G1 X-19.136 Y-5.560 E29.9168
G1 X-18.175 Y-4.598 E30.0027
G1 X-18.175 Y-5.164 E30.0385
G1 X-18.571 Y-5.560 E30.0738
G1 X-21.399 Y-5.560 F4800
G92 E0
G1 X-10.279 Y5.560 E0.9938 F1008
G1 X-10.845 Y5.560 E1.0295
G1 X-21.965 Y-5.560 E2.0233
G1 X-22.531 Y-5.560 E2.0591
G1 X-11.411 Y5.560 E3.0529
G1 X-11.976 Y5.560 E3.0886
G1 X-23.096 Y-5.560 E4.0824
G1 X-23.662 Y-5.560 E4.1182
G1 X-12.542 Y5.560 E5.1120
G1 X-13.108 Y5.560 E5.1477
G1 X-24.228 Y-5.560 E6.1415
G1 X-24.793 Y-5.560 E6.1773
G1 X-13.673 Y5.560 E7.1711
G1 X-14.239 Y5.560 E7.2068
G1 X-25.359 Y-5.560 E8.2006
G1 X-25.925 Y-5.560 E8.2364
G1 X-14.805 Y5.560 E9.2302
G1 X-15.370 Y5.560 E9.2659
G1 X-26.490 Y-5.560 E10.2597
G1 X-27.056 Y-5.560 E10.2954
