; G-Code generated by Simplify3D(R) Version 4.0.1
; Jul 26, 2018 at 7:32:28 PM
; Settings Summary
;   processName,Process1
;   applyToModels,moai-new
;   profileName,BIQU-M_020 (modified)
;   profileVersion,2018-07-05 23:05:51
;   baseProfile,Default
;   printMaterial,PLA
;   printQuality,Medium
;   printExtruders,
;   extruderName,Extruder 1
;   extruderToolheadNumber,0
;   extruderDiameter,0.4
;   extruderAutoWidth,0
;   extruderWidth,0.4
;   extrusionMultiplier,1.05
;   extruderUseRetract,0
;   extruderRetractionDistance,1
;   extruderExtraRestartDistance,0
;   extruderRetractionZLift,0
;   extruderRetractionSpeed,1800
;   extruderUseCoasting,0
;   extruderCoastingDistance,0.2
;   extruderUseWipe,0
;   extruderWipeDistance,5
;   primaryExtruder,0
;   layerHeight,0.2
;   topSolidLayers,2
;   bottomSolidLayers,2
;   perimeterOutlines,2
;   printPerimetersInsideOut,1
;   startPointOption,2
;   startPointOriginX,0
;   startPointOriginY,0
;   sequentialIslands,0
;   spiralVaseMode,0
;   firstLayerHeightPercentage,100
;   firstLayerWidthPercentage,150
;   firstLayerUnderspeed,0.35
;   useRaft,0
;   raftExtruder,0
;   raftTopLayers,3
;   raftBaseLayers,2
;   raftOffset,3
;   raftSeparationDistance,0.14
;   raftTopInfill,100
;   aboveRaftSpeedMultiplier,0.3
;   useSkirt,0
;   skirtExtruder,0
;   skirtLayers,1
;   skirtOutlines,2
;   skirtOffset,4
;   usePrimePillar,0
;   primePillarExtruder,999
;   primePillarWidth,12
;   primePillarLocation,7
;   primePillarSpeedMultiplier,1
;   useOozeShield,0
;   oozeShieldExtruder,999
;   oozeShieldOffset,2
;   oozeShieldOutlines,1
;   oozeShieldSidewallShape,1
;   oozeShieldSidewallAngle,30
;   oozeShieldSpeedMultiplier,1
;   infillExtruder,0
;   internalInfillPattern,Rectilinear
;   externalInfillPattern,Rectilinear
;   infillPercentage,5
;   outlineOverlapPercentage,15
;   infillExtrusionWidthPercentage,100
;   minInfillLength,5
;   infillLayerInterval,1
;   internalInfillAngles,45,-45
;   overlapInternalInfillAngles,0
;   externalInfillAngles,45,-45
;   generateSupport,0
;   supportExtruder,0
;   supportInfillPercentage,30
;   supportExtraInflation,0
;   supportBaseLayers,0
;   denseSupportExtruder,0
;   denseSupportLayers,0
;   denseSupportInfillPercentage,70
;   supportLayerInterval,1
;   supportHorizontalPartOffset,0.3
;   supportUpperSeparationLayers,1
;   supportLowerSeparationLayers,1
;   supportType,0
;   supportGridSpacing,4
;   maxOverhangAngle,45
;   supportAngles,0
;   temperatureName,Extruder 1
;   temperatureNumber,0
;   temperatureSetpointCount,1
;   temperatureSetpointLayers,1
;   temperatureSetpointTemperatures,200
;   temperatureStabilizeAtStartup,1
;   temperatureHeatedBed,0
;   temperatureRelayBetweenLayers,0
;   temperatureRelayBetweenLoops,0
;   fanLayers,1,2
;   fanSpeeds,0,100
;   blipFanToFullPower,0
;   adjustSpeedForCooling,1
;   minSpeedLayerTime,15
;   minCoolingSpeedSlowdown,20
;   increaseFanForCooling,0
;   minFanLayerTime,45
;   maxCoolingFanSpeed,100
;   increaseFanForBridging,0
;   bridgingFanSpeed,100
;   use5D,1
;   relativeEdistances,0
;   allowEaxisZeroing,1
;   independentExtruderAxes,0
;   includeM10123,0
;   stickySupport,1
;   applyToolheadOffsets,0
;   gcodeXoffset,0
;   gcodeYoffset,0
;   gcodeZoffset,-0.05
;   overrideMachineDefinition,1
;   machineTypeOverride,1
;   strokeXoverride,100
;   strokeYoverride,100
;   strokeZoverride,100
;   originOffsetXoverride,50
;   originOffsetYoverride,50
;   originOffsetZoverride,0
;   homeXdirOverride,0
;   homeYdirOverride,0
;   homeZdirOverride,1
;   flipXoverride,1
;   flipYoverride,-1
;   flipZoverride,1
;   toolheadOffsets,0,0|0,0|0,0|0,0|0,0|0,0
;   overrideFirmwareConfiguration,1
;   firmwareTypeOverride,RepRap (Marlin/Repetier/Sprinter)
;   GPXconfigOverride,r2
;   baudRateOverride,115200
;   overridePrinterModels,0
;   printerModelsOverride
;   startingGcode,G28 ; home all axes
;   layerChangeGcode,
;   retractionGcode,
;   toolChangeGcode,
;   endingGcode,M104 S0 ; turn off extruder,M140 S0 ; turn off bed,M84 ; disable motors,G28 ; home all axes
;   exportFileFormat,gcode
;   celebration,0
;   celebrationSong,Star Wars
;   postProcessing,
;   defaultSpeed,4800
;   outlineUnderspeed,0.5
;   solidInfillUnderspeed,0.8
;   supportUnderspeed,0.8
;   rapidXYspeed,4800
;   rapidZspeed,1002
;   minBridgingArea,50
;   bridgingExtraInflation,0
;   bridgingExtrusionMultiplier,1
;   bridgingSpeedMultiplier,1
;   useFixedBridgingAngle,0
;   fixedBridgingAngle,0
;   applyBridgingToPerimeters,0
;   filamentDiameters,1.75|1.75|1.75|1.75|1.75|1.75
;   filamentPricesPerKg,46|46|46|46|46|46
;   filamentDensities,1.25|1.25|1.25|1.25|1.25|1.25
;   useMinPrintHeight,0
;   minPrintHeight,0
;   useMaxPrintHeight,0
;   maxPrintHeight,0
;   useDiaphragm,0
;   diaphragmLayerInterval,20
;   robustSlicing,1
;   mergeAllIntoSolid,0
;   onlyRetractWhenCrossingOutline,1
;   retractBetweenLayers,1
;   useRetractionMinTravel,0
;   retractionMinTravel,3
;   retractWhileWiping,0
;   onlyWipeOutlines,1
;   avoidCrossingOutline,1
;   maxMovementDetourFactor,3
;   toolChangeRetractionDistance,12
;   toolChangeExtraRestartDistance,-0.5
;   toolChangeRetractionSpeed,600
;   externalThinWallType,1
;   internalThinWallType,1
;   thinWallAllowedOverlapPercentage,10
;   singleExtrusionMinLength,1
;   singleExtrusionMinPrintingWidthPercentage,50
;   singleExtrusionMaxPrintingWidthPercentage,200
;   singleExtrusionEndpointExtension,0.2
;   horizontalSizeCompensation,0
G90
M82
M106 S0
M104 S200 T0
M109 S200 T0
G28 ; home all axes
G1 Z0.150 F1002
; process Process1
; layer 1, Z = 0.200
T0
; tool H0.200 W0.600
; inner perimeter
G1 X0.579 Y5.771 F4800
G92 E0
G1 X-0.579 Y5.771 E0.0607 F1260
G1 X-1.713 Y5.802 E0.1201
G1 X-2.269 Y5.833 E0.1493
G1 X-4.180 Y6.001 E0.2498
G1 X-5.050 Y6.028 E0.2954
G1 X-5.444 Y6.021 E0.3160
G1 X-6.183 Y5.970 E0.3548
G1 X-6.819 Y5.866 E0.3886
G1 X-7.459 Y5.691 E0.4234
G1 X-7.771 Y5.577 E0.4407
G1 X-8.099 Y5.432 E0.4595
G1 X-8.433 Y5.255 E0.4793
G1 X-8.772 Y5.043 E0.5003
G1 X-9.098 Y4.800 E0.5216
G1 X-9.396 Y4.531 E0.5426
G1 X-9.653 Y4.241 E0.5629
G1 X-9.867 Y3.920 E0.5831
G1 X-10.048 Y3.568 E0.6038
G1 X-10.190 Y3.203 E0.6244
G1 X-10.291 Y2.844 E0.6439
G1 X-10.351 Y2.511 E0.6616
G1 X-10.376 Y2.186 E0.6787
G1 X-10.372 Y1.849 E0.6963
G1 X-10.341 Y1.482 E0.7156
G1 X-10.287 Y1.092 E0.7363
G1 X-10.207 Y0.710 E0.7567
G1 X-10.092 Y0.349 E0.7766
G1 X-9.940 Y0.016 E0.7958
G1 X-9.735 Y-0.298 E0.8154
G1 X-9.477 Y-0.597 E0.8361
G1 X-9.177 Y-0.867 E0.8572
G1 X-8.854 Y-1.092 E0.8778
G1 X-7.502 Y-1.765 E0.9570
G1 X-6.961 Y-2.133 E0.9912
G1 X-6.497 Y-2.613 E1.0262
G1 X-6.123 Y-3.110 E1.0588
G1 X-5.510 Y-4.025 E1.1165
G1 X-5.222 Y-4.400 E1.1412
G1 X-4.928 Y-4.732 E1.1645
G1 X-4.634 Y-5.014 E1.1858
G1 X-4.348 Y-5.240 E1.2049
G1 X-4.063 Y-5.416 E1.2225
G1 X-3.764 Y-5.561 E1.2399
G1 X-3.446 Y-5.686 E1.2578
G1 X-3.112 Y-5.796 E1.2762
G1 X-2.418 Y-5.991 E1.3140
G1 X-1.726 Y-6.124 E1.3508
G1 X-1.397 Y-6.160 E1.3682
G1 X-0.259 Y-6.215 E1.4279
G1 X0.264 Y-6.215 E1.4553
G1 X1.021 Y-6.187 E1.4949
G1 X1.735 Y-6.122 E1.5325
G1 X2.418 Y-5.991 E1.5689
G1 X3.112 Y-5.796 E1.6067
G1 X3.446 Y-5.686 E1.6251
G1 X3.764 Y-5.561 E1.6430
G1 X4.063 Y-5.416 E1.6604
G1 X4.348 Y-5.240 E1.6780
G1 X4.634 Y-5.014 E1.6971
G1 X4.928 Y-4.732 E1.7184
G1 X5.222 Y-4.400 E1.7417
G1 X5.510 Y-4.025 E1.7664
G1 X6.123 Y-3.110 E1.8241
G1 X6.497 Y-2.613 E1.8567
G1 X6.961 Y-2.133 E1.8917
G1 X7.502 Y-1.765 E1.9259
G1 X8.854 Y-1.092 E2.0050
G1 X9.177 Y-0.867 E2.0257
G1 X9.477 Y-0.597 E2.0468
G1 X9.735 Y-0.298 E2.0675
G1 X9.940 Y0.016 E2.0871
G1 X10.092 Y0.349 E2.1063
G1 X10.207 Y0.710 E2.1262
G1 X10.287 Y1.092 E2.1466
G1 X10.341 Y1.482 E2.1673
G1 X10.372 Y1.849 E2.1866
G1 X10.376 Y2.186 E2.2042
G1 X10.351 Y2.511 E2.2213
G1 X10.291 Y2.844 E2.2390
G1 X10.190 Y3.203 E2.2585
G1 X10.048 Y3.568 E2.2791
G1 X9.867 Y3.920 E2.2998
G1 X9.653 Y4.241 E2.3200
G1 X9.396 Y4.531 E2.3403
G1 X9.098 Y4.800 E2.3613
G1 X8.772 Y5.043 E2.3826
G1 X8.433 Y5.255 E2.4036
G1 X8.099 Y5.432 E2.4234
G1 X7.771 Y5.577 E2.4422
G1 X7.459 Y5.691 E2.4595
G1 X6.819 Y5.866 E2.4943
G1 X6.183 Y5.970 E2.5281
G1 X5.444 Y6.021 E2.5669
G1 X5.050 Y6.028 E2.5875
G1 X4.180 Y6.001 E2.6331
G1 X2.269 Y5.833 E2.7336
G1 X1.713 Y5.802 E2.7628
G1 X0.579 Y5.771 E2.8222
; outer perimeter
G1 X0.571 Y6.371 F4800
G92 E0
G1 X-0.571 Y6.371 E0.0598 F840
G1 X-1.688 Y6.401 E0.1184
G1 X-2.226 Y6.431 E0.1466
G1 X-4.144 Y6.600 E0.2475
G1 X-5.046 Y6.628 E0.2947
G1 X-5.470 Y6.621 E0.3169
G1 X-6.252 Y6.567 E0.3580
G1 X-6.947 Y6.453 E0.3949
G1 X-7.642 Y6.263 E0.4327
G1 X-7.996 Y6.133 E0.4524
G1 X-8.360 Y5.972 E0.4733
G1 X-8.732 Y5.775 E0.4953
G1 X-9.111 Y5.539 E0.5187
G1 X-9.479 Y5.265 E0.5427
G1 X-9.823 Y4.954 E0.5670
G1 X-10.129 Y4.608 E0.5912
G1 X-10.385 Y4.225 E0.6154
G1 X-10.596 Y3.814 E0.6395
G1 X-10.760 Y3.393 E0.6632
G1 X-10.877 Y2.979 E0.6858
G1 X-10.947 Y2.587 E0.7066
G1 X-10.976 Y2.206 E0.7266
G1 X-10.972 Y1.820 E0.7469
G1 X-10.937 Y1.416 E0.7681
G1 X-10.879 Y0.989 E0.7907
G1 X-10.788 Y0.557 E0.8138
G1 X-10.653 Y0.132 E0.8371
G1 X-10.467 Y-0.275 E0.8606
G1 X-10.215 Y-0.660 E0.8847
G1 X-9.906 Y-1.018 E0.9095
G1 X-9.550 Y-1.338 E0.9346
G1 X-9.161 Y-1.610 E0.9594
G1 X-7.806 Y-2.284 E1.0387
G1 X-7.349 Y-2.595 E1.0676
G1 X-6.954 Y-3.003 E1.0974
G1 X-6.613 Y-3.457 E1.1272
G1 X-5.998 Y-4.375 E1.1850
G1 X-5.685 Y-4.783 E1.2119
G1 X-5.361 Y-5.148 E1.2375
G1 X-5.028 Y-5.467 E1.2617
G1 X-4.692 Y-5.732 E1.2841
G1 X-4.353 Y-5.943 E1.3050
G1 X-4.005 Y-6.112 E1.3253
G1 X-3.649 Y-6.251 E1.3453
G1 X-3.288 Y-6.370 E1.3652
G1 X-2.556 Y-6.575 E1.4051
G1 X-1.816 Y-6.718 E1.4445
G1 X-1.445 Y-6.759 E1.4641
G1 X-0.273 Y-6.815 E1.5255
G1 X0.275 Y-6.815 E1.5542
G1 X1.059 Y-6.786 E1.5953
G1 X1.819 Y-6.717 E1.6353
G1 X2.556 Y-6.575 E1.6746
G1 X3.288 Y-6.370 E1.7144
G1 X3.649 Y-6.251 E1.7344
G1 X4.005 Y-6.112 E1.7544
G1 X4.353 Y-5.943 E1.7746
G1 X4.692 Y-5.732 E1.7956
G1 X5.028 Y-5.467 E1.8180
G1 X5.361 Y-5.148 E1.8421
G1 X5.685 Y-4.783 E1.8677
G1 X5.998 Y-4.375 E1.8946
G1 X6.613 Y-3.457 E1.9525
G1 X6.954 Y-3.003 E1.9823
G1 X7.349 Y-2.595 E2.0120
G1 X7.806 Y-2.284 E2.0409
G1 X9.161 Y-1.610 E2.1202
G1 X9.550 Y-1.338 E2.1451
G1 X9.906 Y-1.018 E2.1702
G1 X10.215 Y-0.660 E2.1950
G1 X10.467 Y-0.275 E2.2191
G1 X10.653 Y0.132 E2.2425
G1 X10.788 Y0.557 E2.2659
G1 X10.879 Y0.989 E2.2890
G1 X10.937 Y1.416 E2.3116
G1 X10.972 Y1.820 E2.3328
G1 X10.976 Y2.206 E2.3530
G1 X10.947 Y2.587 E2.3731
G1 X10.877 Y2.979 E2.3939
G1 X10.760 Y3.393 E2.4165
G1 X10.596 Y3.814 E2.4401
G1 X10.385 Y4.225 E2.4643
G1 X10.129 Y4.608 E2.4885
G1 X9.823 Y4.954 E2.5126
G1 X9.479 Y5.265 E2.5369
G1 X9.111 Y5.539 E2.5610
G1 X8.732 Y5.775 E2.5844
G1 X8.360 Y5.972 E2.6064
G1 X7.996 Y6.133 E2.6273
G1 X7.642 Y6.263 E2.6470
G1 X6.947 Y6.453 E2.6848
G1 X6.252 Y6.567 E2.7216
G1 X5.470 Y6.621 E2.7627
G1 X5.046 Y6.628 E2.7849
G1 X4.144 Y6.600 E2.8322
G1 X2.226 Y6.431 E2.9331
G1 X1.688 Y6.401 E2.9613
G1 X0.571 Y6.371 E3.0198
; solid layer
G1 X-7.660 Y5.068 F4800
G92 E0
G1 X-9.714 Y3.014 E0.1522 F1344
G1 X-9.794 Y2.730 E0.1676
G1 X-9.844 Y2.446 E0.1827
G1 X-9.866 Y2.170 E0.1973
G1 X-9.864 Y2.015 E0.2054
G1 X-6.474 Y5.406 E0.4565
G1 X-6.124 Y5.463 E0.4751
G1 X-5.527 Y5.504 E0.5064
G1 X-9.793 Y1.238 E0.8225
G1 X-9.785 Y1.179 E0.8256
G1 X-9.713 Y0.840 E0.8437
G1 X-9.624 Y0.559 E0.8592
G1 X-4.677 Y5.506 E1.2257
G1 X-4.210 Y5.491 E1.2502
G1 X-3.872 Y5.462 E1.2679
G1 X-9.326 Y0.008 E1.6720
G1 X-9.112 Y-0.240 E1.6891
G1 X-8.908 Y-0.423 E1.7035
G1 X-3.092 Y5.393 E2.1343
G1 X-2.312 Y5.325 E2.1754
G1 X-8.390 Y-0.753 E2.6256
G1 X-7.824 Y-1.035 E2.6588
G1 X-1.502 Y5.286 E3.1271
G1 X-0.676 Y5.263 E3.1704
G1 X-7.257 Y-1.317 E3.6579
G1 X-7.243 Y-1.324 E3.6587
G1 X-6.751 Y-1.660 E3.6899
G1 X0.170 Y5.261 E4.2026
G1 X0.586 Y5.261 E4.2245
G1 X1.030 Y5.273 E4.2477
G1 X-6.313 Y-2.070 E4.7917
G1 X-6.109 Y-2.281 E4.8071
G1 X-5.922 Y-2.528 E4.8233
G1 X1.908 Y5.302 E5.4034
G1 X2.306 Y5.324 E5.4243
G1 X2.824 Y5.370 E5.4515
G1 X-5.568 Y-3.022 E6.0733
G1 X-5.228 Y-3.531 E6.1053
G1 X3.754 Y5.451 E6.7707
G1 X4.210 Y5.491 E6.7947
G1 X4.657 Y5.505 E6.8181
G1 X-4.870 Y-4.022 E7.5239
G1 X-4.829 Y-4.076 E7.5274
G1 X-4.560 Y-4.378 E7.5486
G1 X-4.467 Y-4.467 E7.5554
G1 X5.506 Y5.506 E8.2942
G1 X6.124 Y5.463 E8.3267
G1 X6.285 Y5.437 E8.3352
G1 X-4.004 Y-4.853 E9.0975
G1 X-3.817 Y-4.969 E9.1090
G1 X-3.560 Y-5.094 E9.1240
G1 X-3.443 Y-5.140 E9.1306
G1 X6.988 Y5.291 E9.9033
G1 X7.304 Y5.205 E9.9205
G1 X7.580 Y5.103 E9.9359
G1 X7.628 Y5.082 E9.9386
G1 X-2.806 Y-5.352 E10.7116
G1 X-2.300 Y-5.494 E10.7392
G1 X-2.132 Y-5.527 E10.7481
G1 X8.196 Y4.802 E11.5133
G1 X8.484 Y4.622 E11.5311
G1 X8.702 Y4.459 E11.5453
G1 X-1.404 Y-5.647 E12.2940
G1 X-1.357 Y-5.652 E12.2965
G1 X-0.597 Y-5.688 E12.3363
G1 X9.141 Y4.050 E13.0577
G1 X9.248 Y3.929 E13.0662
G1 X9.427 Y3.661 E13.0831
G1 X9.486 Y3.546 E13.0898
G1 X0.235 Y-5.705 E13.7752
G1 X0.255 Y-5.705 E13.7762
G1 X0.988 Y-5.678 E13.8147
G1 X1.122 Y-5.666 E13.8217
G1 X9.733 Y2.945 E14.4596
G1 X9.794 Y2.730 E14.4713
G1 X9.844 Y2.446 E14.4864
G1 X9.862 Y2.225 E14.4981
G1 X2.105 Y-5.532 E15.0727
G1 X2.300 Y-5.494 E15.0831
G1 X2.964 Y-5.308 E15.1192
G1 X3.273 Y-5.206 E15.1363
G1 X3.284 Y-5.202 E15.1369
G1 X5.817 Y-2.668 E15.3246
G1 X6.109 Y-2.281 E15.3500
G1 X6.631 Y-1.741 E15.3893
G1 X6.985 Y-1.500 E15.4118
G1 X9.804 Y1.318 E15.6206
G1 X9.785 Y1.179 E15.6279
G1 X9.713 Y0.840 E15.6461
G1 X9.616 Y0.532 E15.6630
G1 X9.492 Y0.263 E15.6785
G1 X9.326 Y0.009 E15.6944
G1 X9.223 Y-0.111 E15.7027
G1 X8.937 Y-0.397 E15.7239
; layer 2, Z = 0.400
M106 S255
; tool H0.200 W0.400
; inner perimeter
G1 X9.363 Y-1.089 F4800
G1 Z0.350 F1002
G92 E0
G1 X9.694 Y-0.794 E0.0155 F2446
G1 X9.980 Y-0.466 E0.0307
G1 X10.213 Y-0.112 E0.0455
G1 X10.384 Y0.253 E0.0596
G1 X10.511 Y0.642 E0.0738
G1 X10.599 Y1.045 E0.0883
G1 X10.656 Y1.450 E0.1025
G1 X10.690 Y1.833 E0.1160
G1 X10.695 Y2.193 E0.1285
G1 X10.667 Y2.545 E0.1409
G1 X10.602 Y2.909 E0.1538
G1 X10.493 Y3.297 E0.1678
G1 X10.339 Y3.691 E0.1826
G1 X10.143 Y4.074 E0.1977
G1 X9.906 Y4.428 E0.2125
G1 X9.626 Y4.745 E0.2273
G1 X9.307 Y5.034 E0.2423
G1 X8.960 Y5.291 E0.2574
G1 X8.602 Y5.515 E0.2722
G1 X8.248 Y5.702 E0.2861
G1 X7.900 Y5.855 E0.2994
G1 X7.566 Y5.978 E0.3119
G1 X6.893 Y6.162 E0.3362
G1 X6.223 Y6.271 E0.3599
G1 X5.458 Y6.325 E0.3867
G1 X5.046 Y6.333 E0.4011
G1 X4.157 Y6.308 E0.4321
G1 X2.230 Y6.141 E0.4997
G1 X1.677 Y6.111 E0.5190
G1 X0.542 Y6.081 E0.5587
G1 X-0.578 Y6.081 E0.5978
G1 X-1.707 Y6.112 E0.6372
G1 X-2.254 Y6.143 E0.6564
G1 X-4.170 Y6.309 E0.7235
G1 X-5.055 Y6.333 E0.7545
G1 X-5.465 Y6.325 E0.7688
G1 X-6.227 Y6.270 E0.7955
G1 X-6.895 Y6.161 E0.8191
G1 X-7.566 Y5.978 E0.8434
G1 X-7.902 Y5.855 E0.8559
G1 X-8.250 Y5.701 E0.8692
G1 X-8.604 Y5.514 E0.8831
G1 X-8.961 Y5.291 E0.8979
G1 X-9.307 Y5.033 E0.9129
G1 X-9.627 Y4.744 E0.9280
G1 X-9.908 Y4.426 E0.9428
G1 X-10.143 Y4.074 E0.9576
G1 X-10.339 Y3.691 E0.9726
G1 X-10.493 Y3.293 E0.9875
G1 X-10.603 Y2.904 E1.0016
G1 X-10.668 Y2.540 E1.0146
G1 X-10.695 Y2.187 E1.0269
G1 X-10.690 Y1.827 E1.0395
G1 X-10.656 Y1.445 E1.0529
G1 X-10.599 Y1.042 E1.0671
G1 X-10.511 Y0.641 E1.0814
G1 X-10.384 Y0.252 E1.0957
G1 X-10.212 Y-0.116 E1.1099
G1 X-9.980 Y-0.465 E1.1245
G1 X-9.694 Y-0.794 E1.1398
G1 X-9.363 Y-1.089 E1.1552
G1 X-9.006 Y-1.335 E1.1704
G1 X-7.655 Y-2.000 E1.2230
G1 X-7.157 Y-2.337 E1.2440
G1 X-6.729 Y-2.780 E1.2655
G1 X-6.374 Y-3.255 E1.2862
G1 X-5.765 Y-4.173 E1.3247
G1 X-5.467 Y-4.566 E1.3419
G1 X-5.158 Y-4.916 E1.3582
G1 X-4.846 Y-5.218 E1.3734
G1 X-4.536 Y-5.465 E1.3872
G1 X-4.226 Y-5.659 E1.4000
G1 X-3.906 Y-5.816 E1.4124
G1 X-3.573 Y-5.946 E1.4249
G1 X-3.231 Y-6.059 E1.4375
G1 X-2.534 Y-6.254 E1.4627
G1 X-1.865 Y-6.388 E1.4866
G1 X-1.219 Y-6.459 E1.5093
G1 X-0.464 Y-6.494 E1.5357
G1 X0.668 Y-6.487 E1.5752
G1 X1.538 Y-6.430 E1.6057
G1 X2.197 Y-6.329 E1.6290
G1 X2.878 Y-6.164 E1.6534
G1 X3.577 Y-5.945 E1.6790
G1 X3.906 Y-5.816 E1.6913
G1 X4.226 Y-5.659 E1.7038
G1 X4.536 Y-5.465 E1.7165
G1 X4.846 Y-5.218 E1.7304
G1 X5.158 Y-4.916 E1.7456
G1 X5.467 Y-4.566 E1.7619
G1 X5.765 Y-4.173 E1.7791
G1 X6.374 Y-3.255 E1.8176
G1 X6.729 Y-2.780 E1.8383
G1 X7.157 Y-2.337 E1.8598
G1 X7.655 Y-2.000 E1.8808
G1 X9.006 Y-1.335 E1.9334
