; G-Code generated by Simplify3D(R) Version 4.0.1
; Jul 27, 2018 at 3:06:31 AM
; Settings Summary
;   processName,Process1
;   applyToModels,moai-new
;   profileName,Gcode to Mesh (modified)
;   profileVersion,2018-07-05 23:05:51
;   baseProfile,Default
;   printMaterial,PLA
;   printQuality,Medium
;   printExtruders,
;   extruderName,Extruder 1
;   extruderToolheadNumber,0
;   extruderDiameter,0.4
;   extruderAutoWidth,0
;   extruderWidth,0.4
;   extrusionMultiplier,1.05
;   extruderUseRetract,0
;   extruderRetractionDistance,1
;   extruderExtraRestartDistance,0
;   extruderRetractionZLift,0
;   extruderRetractionSpeed,1800
;   extruderUseCoasting,0
;   extruderCoastingDistance,0.2
;   extruderUseWipe,0
;   extruderWipeDistance,5
;   primaryExtruder,0
;   layerHeight,0.2
;   topSolidLayers,0
;   bottomSolidLayers,0
;   perimeterOutlines,3
;   printPerimetersInsideOut,1
;   startPointOption,2
;   startPointOriginX,0
;   startPointOriginY,0
;   sequentialIslands,0
;   spiralVaseMode,0
;   firstLayerHeightPercentage,100
;   firstLayerWidthPercentage,150
;   firstLayerUnderspeed,0.35
;   useRaft,0
;   raftExtruder,0
;   raftTopLayers,3
;   raftBaseLayers,2
;   raftOffset,3
;   raftSeparationDistance,0.14
;   raftTopInfill,100
;   aboveRaftSpeedMultiplier,0.3
;   useSkirt,0
;   skirtExtruder,0
;   skirtLayers,1
;   skirtOutlines,2
;   skirtOffset,4
;   usePrimePillar,0
;   primePillarExtruder,999
;   primePillarWidth,12
;   primePillarLocation,7
;   primePillarSpeedMultiplier,1
;   useOozeShield,0
;   oozeShieldExtruder,999
;   oozeShieldOffset,2
;   oozeShieldOutlines,1
;   oozeShieldSidewallShape,1
;   oozeShieldSidewallAngle,30
;   oozeShieldSpeedMultiplier,1
;   infillExtruder,0
;   internalInfillPattern,Rectilinear
;   externalInfillPattern,Rectilinear
;   infillPercentage,0
;   outlineOverlapPercentage,15
;   infillExtrusionWidthPercentage,100
;   minInfillLength,5
;   infillLayerInterval,1
;   internalInfillAngles,45,-45
;   overlapInternalInfillAngles,0
;   externalInfillAngles,45,-45
;   generateSupport,0
;   supportExtruder,0
;   supportInfillPercentage,30
;   supportExtraInflation,0
;   supportBaseLayers,0
;   denseSupportExtruder,0
;   denseSupportLayers,0
;   denseSupportInfillPercentage,70
;   supportLayerInterval,1
;   supportHorizontalPartOffset,0.3
;   supportUpperSeparationLayers,1
;   supportLowerSeparationLayers,1
;   supportType,0
;   supportGridSpacing,4
;   maxOverhangAngle,45
;   supportAngles,0
;   temperatureName,Extruder 1
;   temperatureNumber,0
;   temperatureSetpointCount,1
;   temperatureSetpointLayers,1
;   temperatureSetpointTemperatures,200
;   temperatureStabilizeAtStartup,1
;   temperatureHeatedBed,0
;   temperatureRelayBetweenLayers,0
;   temperatureRelayBetweenLoops,0
;   fanLayers,1,2
;   fanSpeeds,0,100
;   blipFanToFullPower,0
;   adjustSpeedForCooling,0
;   minSpeedLayerTime,15
;   minCoolingSpeedSlowdown,20
;   increaseFanForCooling,0
;   minFanLayerTime,45
;   maxCoolingFanSpeed,100
;   increaseFanForBridging,0
;   bridgingFanSpeed,100
;   use5D,1
;   relativeEdistances,0
;   allowEaxisZeroing,1
;   independentExtruderAxes,0
;   includeM10123,0
;   stickySupport,1
;   applyToolheadOffsets,0
;   gcodeXoffset,0
;   gcodeYoffset,0
;   gcodeZoffset,-0.05
;   overrideMachineDefinition,1
;   machineTypeOverride,1
;   strokeXoverride,100
;   strokeYoverride,100
;   strokeZoverride,100
;   originOffsetXoverride,50
;   originOffsetYoverride,50
;   originOffsetZoverride,0
;   homeXdirOverride,0
;   homeYdirOverride,0
;   homeZdirOverride,1
;   flipXoverride,1
;   flipYoverride,-1
;   flipZoverride,1
;   toolheadOffsets,0,0|0,0|0,0|0,0|0,0|0,0
;   overrideFirmwareConfiguration,1
;   firmwareTypeOverride,RepRap (Marlin/Repetier/Sprinter)
;   GPXconfigOverride,r2
;   baudRateOverride,115200
;   overridePrinterModels,0
;   printerModelsOverride
;   startingGcode,G28 ; home all axes
;   layerChangeGcode,
;   retractionGcode,
;   toolChangeGcode,
;   endingGcode,M104 S0 ; turn off extruder,M140 S0 ; turn off bed,M84 ; disable motors,G28 ; home all axes
;   exportFileFormat,gcode
;   celebration,0
;   celebrationSong,Star Wars
;   postProcessing,
;   defaultSpeed,4800
;   outlineUnderspeed,0.5
;   solidInfillUnderspeed,0.8
;   supportUnderspeed,0.8
;   rapidXYspeed,4800
;   rapidZspeed,1002
;   minBridgingArea,50
;   bridgingExtraInflation,0
;   bridgingExtrusionMultiplier,1
;   bridgingSpeedMultiplier,1
;   useFixedBridgingAngle,0
;   fixedBridgingAngle,0
;   applyBridgingToPerimeters,0
;   filamentDiameters,1.75|1.75|1.75|1.75|1.75|1.75
;   filamentPricesPerKg,46|46|46|46|46|46
;   filamentDensities,1.25|1.25|1.25|1.25|1.25|1.25
;   useMinPrintHeight,0
;   minPrintHeight,0
;   useMaxPrintHeight,0
;   maxPrintHeight,0
;   useDiaphragm,0
;   diaphragmLayerInterval,20
;   robustSlicing,1
;   mergeAllIntoSolid,0
;   onlyRetractWhenCrossingOutline,0
;   retractBetweenLayers,0
;   useRetractionMinTravel,0
;   retractionMinTravel,3
;   retractWhileWiping,0
;   onlyWipeOutlines,0
;   avoidCrossingOutline,1
;   maxMovementDetourFactor,3
;   toolChangeRetractionDistance,12
;   toolChangeExtraRestartDistance,-0.5
;   toolChangeRetractionSpeed,600
;   externalThinWallType,0
;   internalThinWallType,0
;   thinWallAllowedOverlapPercentage,10
;   singleExtrusionMinLength,1
;   singleExtrusionMinPrintingWidthPercentage,50
;   singleExtrusionMaxPrintingWidthPercentage,200
;   singleExtrusionEndpointExtension,0.2
;   horizontalSizeCompensation,0
G90
M82
M106 S0
M104 S200 T0
M109 S200 T0
G28 ; home all axes
G1 Z0.150 F1002
; process Process1
; layer 1, Z = 0.200
T0
; tool H0.200 W0.600
; inner perimeter
G1 X1.153 Y11.805 F4800
G92 E0
G1 X-1.153 Y11.805 E0.1208 F1260
G1 X-3.410 Y11.866 E0.2391
G1 X-4.513 Y11.928 E0.2970
G1 X-8.353 Y12.266 E0.4989
G1 X-9.224 Y12.307 E0.5445
G1 X-10.084 Y12.321 E0.5896
G1 X-10.911 Y12.308 E0.6330
G1 X-11.689 Y12.269 E0.6737
G1 X-12.398 Y12.206 E0.7111
G1 X-13.058 Y12.116 E0.7459
G1 X-13.693 Y11.995 E0.7798
G1 X-14.329 Y11.838 E0.8141
G1 X-14.979 Y11.642 E0.8497
G1 X-15.638 Y11.401 E0.8864
G1 X-16.307 Y11.106 E0.9247
G1 X-16.989 Y10.745 E0.9651
G1 X-17.681 Y10.314 E1.0079
G1 X-18.350 Y9.817 E1.0515
G1 X-18.964 Y9.263 E1.0948
G1 X-19.498 Y8.659 E1.1371
G1 X-19.948 Y7.988 E1.1794
G1 X-20.325 Y7.256 E1.2225
G1 X-20.622 Y6.499 E1.2651
G1 X-20.832 Y5.755 E1.3056
G1 X-20.957 Y5.060 E1.3426
G1 X-21.010 Y4.383 E1.3782
G1 X-21.001 Y3.685 E1.4148
G1 X-20.937 Y2.931 E1.4544
G1 X-20.829 Y2.130 E1.4967
G1 X-20.662 Y1.340 E1.5390
G1 X-20.424 Y0.585 E1.5805
G1 X-20.104 Y-0.117 E1.6209
G1 X-19.676 Y-0.776 E1.6621
G1 X-19.140 Y-1.397 E1.7051
G1 X-18.517 Y-1.958 E1.7490
G1 X-17.831 Y-2.435 E1.7928
G1 X-17.046 Y-2.844 E1.8391
G1 X-16.133 Y-3.268 E1.8918
G1 X-15.131 Y-3.783 E1.9509
G1 X-14.098 Y-4.487 E2.0163
G1 X-13.203 Y-5.410 E2.0837
G1 X-12.469 Y-6.384 E2.1476
G1 X-11.241 Y-8.214 E2.2630
G1 X-10.656 Y-8.976 E2.3134
G1 X-10.058 Y-9.652 E2.3606
G1 X-9.456 Y-10.228 E2.4043
G1 X-8.863 Y-10.696 E2.4438
G1 X-8.268 Y-11.064 E2.4805
G1 X-7.645 Y-11.367 E2.5168
G1 X-6.987 Y-11.625 E2.5538
G1 X-6.289 Y-11.856 E2.5923
G1 X-5.580 Y-12.070 E2.6311
G1 X-4.879 Y-12.255 E2.6691
G1 X-4.176 Y-12.406 E2.7067
G1 X-3.464 Y-12.521 E2.7445
G1 X-2.718 Y-12.598 E2.7838
G1 X-1.926 Y-12.648 E2.8254
G1 X-0.062 Y-12.707 E2.9231
G1 X1.927 Y-12.648 E3.0274
G1 X2.718 Y-12.598 E3.0688
G1 X3.464 Y-12.521 E3.1082
G1 X4.176 Y-12.406 E3.1460
G1 X4.879 Y-12.255 E3.1836
G1 X5.580 Y-12.070 E3.2216
G1 X6.289 Y-11.856 E3.2604
G1 X6.987 Y-11.625 E3.2989
G1 X7.645 Y-11.367 E3.3359
G1 X8.268 Y-11.064 E3.3722
G1 X8.863 Y-10.696 E3.4089
G1 X9.456 Y-10.228 E3.4484
G1 X10.058 Y-9.652 E3.4921
G1 X10.656 Y-8.976 E3.5393
G1 X11.241 Y-8.214 E3.5897
G1 X12.469 Y-6.384 E3.7051
G1 X13.203 Y-5.410 E3.7690
G1 X14.098 Y-4.487 E3.8364
G1 X15.131 Y-3.783 E3.9018
G1 X16.133 Y-3.268 E3.9609
G1 X17.046 Y-2.844 E4.0136
G1 X17.831 Y-2.435 E4.0599
G1 X18.517 Y-1.958 E4.1037
G1 X19.140 Y-1.397 E4.1476
G1 X19.676 Y-0.776 E4.1906
G1 X20.104 Y-0.117 E4.2318
G1 X20.424 Y0.585 E4.2722
G1 X20.662 Y1.340 E4.3137
G1 X20.829 Y2.130 E4.3560
G1 X20.937 Y2.931 E4.3983
G1 X21.001 Y3.685 E4.4379
G1 X21.010 Y4.383 E4.4745
G1 X20.957 Y5.060 E4.5101
G1 X20.832 Y5.755 E4.5471
G1 X20.622 Y6.499 E4.5876
G1 X20.325 Y7.256 E4.6302
G1 X19.948 Y7.988 E4.6733
G1 X19.498 Y8.659 E4.7156
G1 X18.964 Y9.263 E4.7579
G1 X18.350 Y9.817 E4.8012
G1 X17.681 Y10.314 E4.8448
G1 X16.989 Y10.745 E4.8876
G1 X16.307 Y11.106 E4.9280
G1 X15.638 Y11.401 E4.9663
G1 X14.979 Y11.642 E5.0030
G1 X14.329 Y11.838 E5.0386
G1 X13.693 Y11.995 E5.0729
G1 X13.058 Y12.116 E5.1067
G1 X12.398 Y12.206 E5.1416
G1 X11.689 Y12.269 E5.1790
G1 X10.911 Y12.308 E5.2197
G1 X10.084 Y12.321 E5.2631
G1 X9.224 Y12.307 E5.3082
G1 X8.353 Y12.266 E5.3538
G1 X4.513 Y11.928 E5.5557
G1 X3.410 Y11.866 E5.6136
G1 X1.153 Y11.805 E5.7319
G1 X1.145 Y12.405 F4800
G92 E0
G1 X-1.145 Y12.405 E0.1199 F1260
G1 X-3.385 Y12.466 E0.2374
G1 X-4.470 Y12.526 E0.2943
G1 X-8.313 Y12.865 E0.4963
G1 X-9.204 Y12.907 E0.5431
G1 X-10.084 Y12.921 E0.5892
G1 X-10.931 Y12.907 E0.6336
G1 X-11.730 Y12.867 E0.6755
G1 X-12.466 Y12.802 E0.7142
G1 X-13.155 Y12.708 E0.7506
G1 X-13.821 Y12.581 E0.7861
G1 X-14.487 Y12.417 E0.8221
G1 X-15.169 Y12.212 E0.8594
G1 X-15.862 Y11.958 E0.8980
G1 X-16.568 Y11.646 E0.9385
G1 X-17.288 Y11.266 E0.9811
G1 X-18.019 Y10.810 E1.0263
G1 X-18.730 Y10.282 E1.0727
G1 X-19.391 Y9.686 E1.1193
G1 X-19.974 Y9.027 E1.1654
G1 X-20.466 Y8.294 E1.2116
G1 X-20.873 Y7.504 E1.2582
G1 X-21.191 Y6.690 E1.3039
G1 X-21.418 Y5.890 E1.3475
G1 X-21.553 Y5.137 E1.3876
G1 X-21.610 Y4.403 E1.4261
G1 X-21.601 Y3.655 E1.4653
G1 X-21.534 Y2.865 E1.5068
G1 X-21.420 Y2.028 E1.5511
G1 X-21.243 Y1.188 E1.5961
G1 X-20.985 Y0.369 E1.6410
G1 X-20.632 Y-0.407 E1.6857
G1 X-20.157 Y-1.137 E1.7313
G1 X-19.569 Y-1.818 E1.7784
G1 X-18.890 Y-2.429 E1.8263
G1 X-18.142 Y-2.950 E1.8741
G1 X-17.311 Y-3.382 E1.9231
G1 X-16.397 Y-3.807 E1.9759
G1 X-15.438 Y-4.299 E2.0324
G1 X-14.487 Y-4.948 E2.0927
G1 X-13.660 Y-5.801 E2.1549
G1 X-12.958 Y-6.732 E2.2160
G1 X-11.729 Y-8.564 E2.3316
G1 X-11.119 Y-9.359 E2.3840
G1 X-10.491 Y-10.068 E2.4337
G1 X-9.851 Y-10.681 E2.4801
G1 X-9.208 Y-11.188 E2.5230
G1 X-8.557 Y-11.590 E2.5631
G1 X-7.886 Y-11.917 E2.6022
G1 X-7.191 Y-12.190 E2.6413
G1 X-6.470 Y-12.428 E2.6811
G1 X-5.743 Y-12.648 E2.7208
G1 X-5.018 Y-12.838 E2.7601
G1 X-4.288 Y-12.996 E2.7993
G1 X-3.543 Y-13.116 E2.8388
G1 X-2.767 Y-13.197 E2.8796
G1 X-1.954 Y-13.247 E2.9223
G1 X-0.062 Y-13.307 E3.0215
G1 X1.955 Y-13.247 E3.1272
G1 X2.767 Y-13.197 E3.1698
G1 X3.543 Y-13.116 E3.2107
G1 X4.288 Y-12.996 E3.2502
G1 X5.018 Y-12.838 E3.2893
G1 X5.743 Y-12.648 E3.3286
G1 X6.470 Y-12.428 E3.3684
G1 X7.191 Y-12.190 E3.4081
G1 X7.886 Y-11.917 E3.4473
G1 X8.557 Y-11.590 E3.4864
G1 X9.208 Y-11.188 E3.5264
G1 X9.851 Y-10.681 E3.5693
G1 X10.491 Y-10.068 E3.6158
G1 X11.119 Y-9.359 E3.6654
G1 X11.729 Y-8.564 E3.7179
G1 X12.958 Y-6.732 E3.8335
G1 X13.660 Y-5.801 E3.8945
G1 X14.487 Y-4.948 E3.9567
G1 X15.438 Y-4.299 E4.0171
G1 X16.397 Y-3.807 E4.0735
G1 X17.311 Y-3.382 E4.1263
G1 X18.142 Y-2.950 E4.1754
G1 X18.890 Y-2.429 E4.2232
G1 X19.569 Y-1.818 E4.2710
G1 X20.157 Y-1.137 E4.3181
G1 X20.632 Y-0.407 E4.3638
G1 X20.985 Y0.369 E4.4084
G1 X21.243 Y1.188 E4.4534
G1 X21.420 Y2.028 E4.4984
G1 X21.534 Y2.865 E4.5426
G1 X21.601 Y3.655 E4.5842
G1 X21.610 Y4.403 E4.6233
G1 X21.553 Y5.137 E4.6619
G1 X21.418 Y5.890 E4.7020
G1 X21.191 Y6.690 E4.7455
G1 X20.873 Y7.504 E4.7913
G1 X20.466 Y8.294 E4.8379
G1 X19.974 Y9.027 E4.8841
G1 X19.391 Y9.686 E4.9302
G1 X18.730 Y10.282 E4.9768
G1 X18.019 Y10.810 E5.0232
G1 X17.288 Y11.266 E5.0683
G1 X16.568 Y11.646 E5.1110
G1 X15.862 Y11.958 E5.1514
G1 X15.169 Y12.212 E5.1901
G1 X14.487 Y12.417 E5.2274
G1 X13.821 Y12.581 E5.2633
G1 X13.155 Y12.708 E5.2988
G1 X12.466 Y12.802 E5.3353
G1 X11.730 Y12.867 E5.3740
G1 X10.931 Y12.907 E5.4159
G1 X10.084 Y12.921 E5.4603
G1 X9.204 Y12.907 E5.5063
G1 X8.313 Y12.865 E5.5531
G1 X4.470 Y12.526 E5.7552
G1 X3.385 Y12.466 E5.8121
G1 X1.145 Y12.405 E5.9295
; outer perimeter
G1 X1.137 Y13.005 F4800
G92 E0
G1 X-1.137 Y13.005 E0.1191 F840
G1 X-3.360 Y13.065 E0.2356
G1 X-4.427 Y13.125 E0.2916
G1 X-8.272 Y13.464 E0.4938
G1 X-9.186 Y13.507 E0.5417
G1 X-10.084 Y13.521 E0.5888
G1 X-10.951 Y13.507 E0.6342
G1 X-11.772 Y13.466 E0.6772
G1 X-12.533 Y13.398 E0.7173
G1 X-13.252 Y13.300 E0.7553
G1 X-13.949 Y13.168 E0.7925
G1 X-14.646 Y12.996 E0.8300
G1 X-15.359 Y12.781 E0.8691
G1 X-16.087 Y12.515 E0.9097
G1 X-16.830 Y12.186 E0.9522
G1 X-17.587 Y11.786 E0.9971
G1 X-18.358 Y11.306 E1.0446
G1 X-19.111 Y10.746 E1.0938
G1 X-19.818 Y10.109 E1.1437
G1 X-20.450 Y9.394 E1.1937
G1 X-20.983 Y8.599 E1.2438
G1 X-21.420 Y7.751 E1.2938
G1 X-21.760 Y6.882 E1.3427
G1 X-22.003 Y6.025 E1.3893
G1 X-22.149 Y5.213 E1.4325
G1 X-22.211 Y4.422 E1.4741
G1 X-22.201 Y3.626 E1.5158
G1 X-22.130 Y2.799 E1.5593
G1 X-22.012 Y1.925 E1.6055
G1 X-21.824 Y1.036 E1.6531
G1 X-21.547 Y0.154 E1.7015
G1 X-21.159 Y-0.696 E1.7505
G1 X-20.637 Y-1.498 E1.8006
G1 X-19.999 Y-2.239 E1.8518
G1 X-19.264 Y-2.900 E1.9036
G1 X-18.453 Y-3.464 E1.9553
G1 X-17.576 Y-3.921 E2.0071
G1 X-16.660 Y-4.347 E2.0600
G1 X-15.745 Y-4.816 E2.1139
G1 X-14.875 Y-5.409 E2.1691
G1 X-14.117 Y-6.192 E2.2262
G1 X-13.447 Y-7.080 E2.2844
G1 X-12.216 Y-8.914 E2.4002
G1 X-11.582 Y-9.741 E2.4547
G1 X-10.923 Y-10.484 E2.5068
G1 X-10.245 Y-11.134 E2.5560
G1 X-9.552 Y-11.681 E2.6022
G1 X-8.847 Y-12.116 E2.6456
G1 X-8.127 Y-12.467 E2.6876
G1 X-7.395 Y-12.754 E2.7288
G1 X-6.651 Y-13.000 E2.7698
G1 X-5.906 Y-13.225 E2.8106
G1 X-5.158 Y-13.422 E2.8511
G1 X-4.399 Y-13.586 E2.8918
G1 X-3.622 Y-13.711 E2.9330
G1 X-2.817 Y-13.795 E2.9754
G1 X-1.982 Y-13.847 E3.0192
G1 X-0.063 Y-13.907 E3.1198
G1 X1.982 Y-13.847 E3.2270
G1 X2.817 Y-13.795 E3.2708
G1 X3.622 Y-13.711 E3.3132
G1 X4.399 Y-13.586 E3.3544
G1 X5.158 Y-13.422 E3.3951
G1 X5.906 Y-13.225 E3.4356
G1 X6.651 Y-13.000 E3.4764
G1 X7.395 Y-12.754 E3.5174
G1 X8.127 Y-12.467 E3.5587
G1 X8.847 Y-12.116 E3.6006
G1 X9.552 Y-11.681 E3.6440
G1 X10.245 Y-11.134 E3.6902
G1 X10.923 Y-10.484 E3.7394
G1 X11.582 Y-9.741 E3.7915
G1 X12.216 Y-8.914 E3.8461
G1 X13.447 Y-7.080 E3.9618
G1 X14.117 Y-6.192 E4.0200
G1 X14.875 Y-5.409 E4.0771
G1 X15.745 Y-4.816 E4.1323
G1 X16.660 Y-4.347 E4.1862
G1 X17.576 Y-3.921 E4.2391
G1 X18.453 Y-3.464 E4.2909
G1 X19.264 Y-2.900 E4.3426
G1 X19.999 Y-2.239 E4.3944
G1 X20.637 Y-1.498 E4.4456
G1 X21.159 Y-0.696 E4.4957
G1 X21.547 Y0.154 E4.5447
G1 X21.824 Y1.036 E4.5931
G1 X22.012 Y1.925 E4.6407
G1 X22.130 Y2.799 E4.6869
G1 X22.201 Y3.626 E4.7304
G1 X22.211 Y4.422 E4.7721
G1 X22.149 Y5.213 E4.8137
G1 X22.003 Y6.025 E4.8569
G1 X21.760 Y6.882 E4.9035
G1 X21.420 Y7.751 E4.9524
G1 X20.983 Y8.599 E5.0024
G1 X20.450 Y9.394 E5.0525
G1 X19.818 Y10.109 E5.1025
G1 X19.111 Y10.746 E5.1524
G1 X18.358 Y11.306 E5.2016
G1 X17.587 Y11.786 E5.2491
G1 X16.830 Y12.186 E5.2940
G1 X16.087 Y12.515 E5.3365
G1 X15.359 Y12.781 E5.3771
G1 X14.646 Y12.996 E5.4162
G1 X13.949 Y13.168 E5.4537
G1 X13.252 Y13.300 E5.4909
G1 X12.533 Y13.398 E5.5290
G1 X11.772 Y13.466 E5.5690
G1 X10.951 Y13.507 E5.6120
G1 X10.084 Y13.521 E5.6574
G1 X9.186 Y13.507 E5.7045
G1 X8.272 Y13.464 E5.7524
G1 X4.427 Y13.125 E5.9546
G1 X3.360 Y13.065 E6.0106
G1 X1.137 Y13.005 E6.1271
; layer 2, Z = 0.400
M106 S255
; tool H0.200 W0.400
; inner perimeter
G1 X1.149 Y12.354 F4800
G1 Z0.350 F1002
G92 E0
G1 X-1.180 Y12.355 E0.0813 F3600
G1 X-3.432 Y12.417 E0.1600
G1 X-4.522 Y12.480 E0.1981
G1 X-8.322 Y12.812 E0.3313
G1 X-9.211 Y12.853 E0.3624
G1 X-10.088 Y12.865 E0.3931
G1 X-10.935 Y12.850 E0.4226
G1 X-11.733 Y12.809 E0.4505
G1 X-12.465 Y12.744 E0.4762
G1 X-13.151 Y12.650 E0.5004
G1 X-13.813 Y12.524 E0.5239
G1 X-14.477 Y12.361 E0.5478
G1 X-15.158 Y12.156 E0.5726
G1 X-15.850 Y11.902 E0.5984
G1 X-16.557 Y11.590 E0.6254
G1 X-17.277 Y11.209 E0.6538
G1 X-18.008 Y10.752 E0.6839
G1 X-18.719 Y10.223 E0.7149
G1 X-19.377 Y9.627 E0.7459
G1 X-19.956 Y8.972 E0.7764
G1 X-20.441 Y8.247 E0.8069
G1 X-20.843 Y7.464 E0.8376
G1 X-21.156 Y6.658 E0.8678
G1 X-21.378 Y5.866 E0.8965
G1 X-21.511 Y5.121 E0.9229
G1 X-21.568 Y4.397 E0.9483
G1 X-21.558 Y3.658 E0.9741
