; G-Code generated by Simplify3D(R) Version 4.0.1
; Jul 26, 2018 at 11:57:29 PM
; Settings Summary
;   processName,Process1
;   applyToModels,moai-new
;   profileName,Gcode to Mesh (modified)
;   profileVersion,2018-07-05 23:05:51
;   baseProfile,Default
;   printMaterial,PLA
;   printQuality,Medium
;   printExtruders,
;   extruderName,Extruder 1
;   extruderToolheadNumber,0
;   extruderDiameter,0.4
;   extruderAutoWidth,0
;   extruderWidth,0.4
;   extrusionMultiplier,1.05
;   extruderUseRetract,0
;   extruderRetractionDistance,1
;   extruderExtraRestartDistance,0
;   extruderRetractionZLift,0
;   extruderRetractionSpeed,1800
;   extruderUseCoasting,0
;   extruderCoastingDistance,0.2
;   extruderUseWipe,0
;   extruderWipeDistance,5
;   primaryExtruder,0
;   layerHeight,0.2
;   topSolidLayers,1
;   bottomSolidLayers,0
;   perimeterOutlines,1
;   printPerimetersInsideOut,1
;   startPointOption,2
;   startPointOriginX,0
;   startPointOriginY,0
;   sequentialIslands,0
;   spiralVaseMode,0
;   firstLayerHeightPercentage,100
;   firstLayerWidthPercentage,150
;   firstLayerUnderspeed,0.35
;   useRaft,0
;   raftExtruder,0
;   raftTopLayers,3
;   raftBaseLayers,2
;   raftOffset,3
;   raftSeparationDistance,0.14
;   raftTopInfill,100
;   aboveRaftSpeedMultiplier,0.3
;   useSkirt,0
;   skirtExtruder,0
;   skirtLayers,1
;   skirtOutlines,2
;   skirtOffset,4
;   usePrimePillar,0
;   primePillarExtruder,999
;   primePillarWidth,12
;   primePillarLocation,7
;   primePillarSpeedMultiplier,1
;   useOozeShield,0
;   oozeShieldExtruder,999
;   oozeShieldOffset,2
;   oozeShieldOutlines,1
;   oozeShieldSidewallShape,1
;   oozeShieldSidewallAngle,30
;   oozeShieldSpeedMultiplier,1
;   infillExtruder,0
;   internalInfillPattern,Rectilinear
;   externalInfillPattern,Rectilinear
;   infillPercentage,0
;   outlineOverlapPercentage,15
;   infillExtrusionWidthPercentage,100
;   minInfillLength,5
;   infillLayerInterval,1
;   internalInfillAngles,45,-45
;   overlapInternalInfillAngles,0
;   externalInfillAngles,45,-45
;   generateSupport,0
;   supportExtruder,0
;   supportInfillPercentage,30
;   supportExtraInflation,0
;   supportBaseLayers,0
;   denseSupportExtruder,0
;   denseSupportLayers,0
;   denseSupportInfillPercentage,70
;   supportLayerInterval,1
;   supportHorizontalPartOffset,0.3
;   supportUpperSeparationLayers,1
;   supportLowerSeparationLayers,1
;   supportType,0
;   supportGridSpacing,4
;   maxOverhangAngle,45
;   supportAngles,0
;   temperatureName,Extruder 1
;   temperatureNumber,0
;   temperatureSetpointCount,1
;   temperatureSetpointLayers,1
;   temperatureSetpointTemperatures,200
;   temperatureStabilizeAtStartup,1
;   temperatureHeatedBed,0
;   temperatureRelayBetweenLayers,0
;   temperatureRelayBetweenLoops,0
;   fanLayers,1,2
;   fanSpeeds,0,100
;   blipFanToFullPower,0
;   adjustSpeedForCooling,0
;   minSpeedLayerTime,15
;   minCoolingSpeedSlowdown,20
;   increaseFanForCooling,0
;   minFanLayerTime,45
;   maxCoolingFanSpeed,100
;   increaseFanForBridging,0
;   bridgingFanSpeed,100
;   use5D,1
;   relativeEdistances,0
;   allowEaxisZeroing,1
;   independentExtruderAxes,0
;   includeM10123,0
;   stickySupport,1
;   applyToolheadOffsets,0
;   gcodeXoffset,0
;   gcodeYoffset,0
;   gcodeZoffset,-0.05
;   overrideMachineDefinition,1
;   machineTypeOverride,1
;   strokeXoverride,100
;   strokeYoverride,100
;   strokeZoverride,100
;   originOffsetXoverride,50
;   originOffsetYoverride,50
;   originOffsetZoverride,0
;   homeXdirOverride,0
;   homeYdirOverride,0
;   homeZdirOverride,1
;   flipXoverride,1
;   flipYoverride,-1
;   flipZoverride,1
;   toolheadOffsets,0,0|0,0|0,0|0,0|0,0|0,0
;   overrideFirmwareConfiguration,1
;   firmwareTypeOverride,RepRap (Marlin/Repetier/Sprinter)
;   GPXconfigOverride,r2
;   baudRateOverride,115200
;   overridePrinterModels,0
;   printerModelsOverride
;   startingGcode,G28 ; home all axes
;   layerChangeGcode,
;   retractionGcode,
;   toolChangeGcode,
;   endingGcode,M104 S0 ; turn off extruder,M140 S0 ; turn off bed,M84 ; disable motors,G28 ; home all axes
;   exportFileFormat,gcode
;   celebration,0
;   celebrationSong,Star Wars
;   postProcessing,
;   defaultSpeed,4800
;   outlineUnderspeed,0.5
;   solidInfillUnderspeed,0.8
;   supportUnderspeed,0.8
;   rapidXYspeed,4800
;   rapidZspeed,1002
;   minBridgingArea,50
;   bridgingExtraInflation,0
;   bridgingExtrusionMultiplier,1
;   bridgingSpeedMultiplier,1
;   useFixedBridgingAngle,0
;   fixedBridgingAngle,0
;   applyBridgingToPerimeters,0
;   filamentDiameters,1.75|1.75|1.75|1.75|1.75|1.75
;   filamentPricesPerKg,46|46|46|46|46|46
;   filamentDensities,1.25|1.25|1.25|1.25|1.25|1.25
;   useMinPrintHeight,0
;   minPrintHeight,0
;   useMaxPrintHeight,0
;   maxPrintHeight,0
;   useDiaphragm,0
;   diaphragmLayerInterval,20
;   robustSlicing,1
;   mergeAllIntoSolid,0
;   onlyRetractWhenCrossingOutline,0
;   retractBetweenLayers,0
;   useRetractionMinTravel,0
;   retractionMinTravel,3
;   retractWhileWiping,0
;   onlyWipeOutlines,0
;   avoidCrossingOutline,1
;   maxMovementDetourFactor,3
;   toolChangeRetractionDistance,12
;   toolChangeExtraRestartDistance,-0.5
;   toolChangeRetractionSpeed,600
;   externalThinWallType,0
;   internalThinWallType,0
;   thinWallAllowedOverlapPercentage,10
;   singleExtrusionMinLength,1
;   singleExtrusionMinPrintingWidthPercentage,50
;   singleExtrusionMaxPrintingWidthPercentage,200
;   singleExtrusionEndpointExtension,0.2
;   horizontalSizeCompensation,0
G90
M82
M106 S0
M104 S200 T0
M109 S200 T0
G28 ; home all axes
G1 Z0.150 F1002
; process Process1
; layer 1, Z = 0.200
T0
; tool H0.200 W0.600
; outer perimeter
G1 X1.137 Y13.005 F4800
G92 E0
G1 X-1.137 Y13.005 E0.1191 F840
G1 X-3.360 Y13.065 E0.2356
G1 X-4.427 Y13.125 E0.2916
G1 X-8.272 Y13.464 E0.4938
G1 X-9.186 Y13.507 E0.5417
G1 X-10.084 Y13.521 E0.5888
G1 X-10.951 Y13.507 E0.6342
G1 X-11.772 Y13.466 E0.6772
G1 X-12.533 Y13.398 E0.7173
G1 X-13.252 Y13.300 E0.7553
G1 X-13.949 Y13.168 E0.7925
G1 X-14.646 Y12.996 E0.8300
G1 X-15.359 Y12.781 E0.8691
G1 X-16.087 Y12.515 E0.9097
G1 X-16.830 Y12.186 E0.9522
G1 X-17.587 Y11.786 E0.9971
G1 X-18.358 Y11.306 E1.0446
G1 X-19.111 Y10.746 E1.0938
G1 X-19.818 Y10.109 E1.1437
G1 X-20.450 Y9.394 E1.1937
G1 X-20.983 Y8.599 E1.2438
G1 X-21.420 Y7.751 E1.2938
G1 X-21.760 Y6.882 E1.3427
G1 X-22.003 Y6.025 E1.3893
G1 X-22.149 Y5.213 E1.4325
G1 X-22.211 Y4.422 E1.4741
G1 X-22.201 Y3.626 E1.5158
G1 X-22.130 Y2.799 E1.5593
G1 X-22.012 Y1.925 E1.6055
G1 X-21.824 Y1.036 E1.6531
G1 X-21.547 Y0.154 E1.7015
G1 X-21.159 Y-0.696 E1.7505
G1 X-20.637 Y-1.498 E1.8006
G1 X-19.999 Y-2.239 E1.8518
G1 X-19.264 Y-2.900 E1.9036
G1 X-18.453 Y-3.464 E1.9553
G1 X-17.576 Y-3.921 E2.0071
G1 X-16.660 Y-4.347 E2.0600
G1 X-15.745 Y-4.816 E2.1139
G1 X-14.875 Y-5.409 E2.1691
G1 X-14.117 Y-6.192 E2.2262
G1 X-13.447 Y-7.080 E2.2844
G1 X-12.216 Y-8.914 E2.4002
G1 X-11.582 Y-9.741 E2.4547
G1 X-10.923 Y-10.484 E2.5068
G1 X-10.245 Y-11.134 E2.5560
G1 X-9.552 Y-11.681 E2.6022
G1 X-8.847 Y-12.116 E2.6456
G1 X-8.127 Y-12.467 E2.6876
G1 X-7.395 Y-12.754 E2.7288
G1 X-6.651 Y-13.000 E2.7698
G1 X-5.906 Y-13.225 E2.8106
G1 X-5.158 Y-13.422 E2.8511
G1 X-4.399 Y-13.586 E2.8918
G1 X-3.622 Y-13.711 E2.9330
G1 X-2.817 Y-13.795 E2.9754
G1 X-1.982 Y-13.847 E3.0192
G1 X-0.063 Y-13.907 E3.1198
G1 X1.982 Y-13.847 E3.2270
G1 X2.817 Y-13.795 E3.2708
G1 X3.622 Y-13.711 E3.3132
G1 X4.399 Y-13.586 E3.3544
G1 X5.158 Y-13.422 E3.3951
G1 X5.906 Y-13.225 E3.4356
G1 X6.651 Y-13.000 E3.4764
G1 X7.395 Y-12.754 E3.5174
G1 X8.127 Y-12.467 E3.5587
G1 X8.847 Y-12.116 E3.6006
G1 X9.552 Y-11.681 E3.6440
G1 X10.245 Y-11.134 E3.6902
G1 X10.923 Y-10.484 E3.7394
G1 X11.582 Y-9.741 E3.7915
G1 X12.216 Y-8.914 E3.8461
G1 X13.447 Y-7.080 E3.9618
G1 X14.117 Y-6.192 E4.0200
G1 X14.875 Y-5.409 E4.0771
G1 X15.745 Y-4.816 E4.1323
G1 X16.660 Y-4.347 E4.1862
G1 X17.576 Y-3.921 E4.2391
G1 X18.453 Y-3.464 E4.2909
G1 X19.264 Y-2.900 E4.3426
G1 X19.999 Y-2.239 E4.3944
G1 X20.637 Y-1.498 E4.4456
G1 X21.159 Y-0.696 E4.4957
G1 X21.547 Y0.154 E4.5447
G1 X21.824 Y1.036 E4.5931
G1 X22.012 Y1.925 E4.6407
G1 X22.130 Y2.799 E4.6869
G1 X22.201 Y3.626 E4.7304
G1 X22.211 Y4.422 E4.7721
G1 X22.149 Y5.213 E4.8137
G1 X22.003 Y6.025 E4.8569
G1 X21.760 Y6.882 E4.9035
G1 X21.420 Y7.751 E4.9524
G1 X20.983 Y8.599 E5.0024
G1 X20.450 Y9.394 E5.0525
G1 X19.818 Y10.109 E5.1025
G1 X19.111 Y10.746 E5.1524
G1 X18.358 Y11.306 E5.2016
G1 X17.587 Y11.786 E5.2491
G1 X16.830 Y12.186 E5.2940
G1 X16.087 Y12.515 E5.3365
G1 X15.359 Y12.781 E5.3771
G1 X14.646 Y12.996 E5.4162
G1 X13.949 Y13.168 E5.4537
G1 X13.252 Y13.300 E5.4909
G1 X12.533 Y13.398 E5.5290
G1 X11.772 Y13.466 E5.5690
G1 X10.951 Y13.507 E5.6120
G1 X10.084 Y13.521 E5.6574
G1 X9.186 Y13.507 E5.7045
G1 X8.272 Y13.464 E5.7524
G1 X4.427 Y13.125 E5.9546
G1 X3.360 Y13.065 E6.0106
G1 X1.137 Y13.005 E6.1271
; layer 2, Z = 0.400
M106 S255
; tool H0.200 W0.400
G1 X1.138 Y13.154 F4800
G1 Z0.350 F1002
G92 E0
G1 X-1.169 Y13.155 E0.0805 F2400
G1 X-3.398 Y13.217 E0.1584
G1 X-4.465 Y13.278 E0.1957
G1 X-8.269 Y13.611 E0.3291
G1 X-9.187 Y13.652 E0.3612
G1 X-10.090 Y13.665 E0.3927
G1 X-10.962 Y13.650 E0.4232
G1 X-11.789 Y13.607 E0.4521
G1 X-12.555 Y13.539 E0.4790
G1 X-13.280 Y13.440 E0.5045
G1 X-13.984 Y13.306 E0.5295
G1 X-14.688 Y13.132 E0.5549
G1 X-15.411 Y12.915 E0.5812
G1 X-16.150 Y12.644 E0.6087
G1 X-16.906 Y12.310 E0.6376
G1 X-17.676 Y11.903 E0.6680
G1 X-18.460 Y11.413 E0.7003
G1 X-19.227 Y10.842 E0.7337
G1 X-19.947 Y10.191 E0.7676
G1 X-20.591 Y9.462 E0.8016
G1 X-21.132 Y8.653 E0.8356
G1 X-21.573 Y7.792 E0.8693
G1 X-21.915 Y6.912 E0.9023
G1 X-22.159 Y6.045 E0.9338
G1 X-22.306 Y5.223 E0.9629
G1 X-22.368 Y4.422 E0.9910
G1 X-22.358 Y3.619 E1.0190
G1 X-22.287 Y2.787 E1.0482
G1 X-22.166 Y1.910 E1.0791
G1 X-21.975 Y1.015 E1.1111
G1 X-21.692 Y0.124 E1.1437
G1 X-21.294 Y-0.740 E1.1769
G1 X-20.759 Y-1.557 E1.2111
G1 X-20.104 Y-2.314 E1.2460
G1 X-19.353 Y-2.989 E1.2813
G1 X-18.520 Y-3.568 E1.3167
G1 X-17.639 Y-4.025 E1.3514
G1 X-16.722 Y-4.448 E1.3866
G1 X-15.815 Y-4.910 E1.4222
G1 X-14.961 Y-5.490 E1.4582
G1 X-14.218 Y-6.258 E1.4955
G1 X-13.558 Y-7.137 E1.5339
G1 X-12.330 Y-8.975 E1.6111
G1 X-11.688 Y-9.813 E1.6480
G1 X-11.017 Y-10.570 E1.6833
G1 X-10.326 Y-11.234 E1.7168
G1 X-9.620 Y-11.792 E1.7482
G1 X-8.903 Y-12.236 E1.7777
G1 X-8.176 Y-12.589 E1.8059
G1 X-7.441 Y-12.876 E1.8334
G1 X-6.701 Y-13.120 E1.8607
G1 X-5.962 Y-13.341 E1.8876
G1 X-5.225 Y-13.534 E1.9142
G1 X-4.487 Y-13.696 E1.9406
G1 X-3.747 Y-13.823 E1.9668
G1 X-2.998 Y-13.911 E1.9931
G1 X-2.272 Y-13.967 E2.0186
G1 X-0.990 Y-14.023 E2.0634
G1 X-0.303 Y-14.034 E2.0874
G1 X1.033 Y-14.021 E2.1341
G1 X2.272 Y-13.967 E2.1774
G1 X2.998 Y-13.911 E2.2028
G1 X3.747 Y-13.823 E2.2291
G1 X4.487 Y-13.696 E2.2554
G1 X5.225 Y-13.534 E2.2817
G1 X5.962 Y-13.341 E2.3083
G1 X6.701 Y-13.120 E2.3353
G1 X7.441 Y-12.876 E2.3625
G1 X8.176 Y-12.589 E2.3900
G1 X8.903 Y-12.236 E2.4183
G1 X9.620 Y-11.792 E2.4477
G1 X10.326 Y-11.234 E2.4792
G1 X11.017 Y-10.570 E2.5126
G1 X11.688 Y-9.813 E2.5479
G1 X12.330 Y-8.975 E2.5848
G1 X13.558 Y-7.137 E2.6620
G1 X14.218 Y-6.258 E2.7004
G1 X14.961 Y-5.490 E2.7377
G1 X15.815 Y-4.910 E2.7738
G1 X16.722 Y-4.448 E2.8093
G1 X17.649 Y-4.020 E2.8449
G1 X18.527 Y-3.564 E2.8795
G1 X19.353 Y-2.989 E2.9147
G1 X20.104 Y-2.314 E2.9500
G1 X20.759 Y-1.557 E2.9849
G1 X21.294 Y-0.740 E3.0190
G1 X21.692 Y0.124 E3.0522
G1 X21.975 Y1.015 E3.0849
G1 X22.166 Y1.910 E3.1168
G1 X22.287 Y2.787 E3.1478
G1 X22.358 Y3.619 E3.1769
G1 X22.368 Y4.422 E3.2050
G1 X22.306 Y5.223 E3.2330
G1 X22.159 Y6.045 E3.2622
G1 X21.915 Y6.912 E3.2936
G1 X21.573 Y7.792 E3.3266
G1 X21.132 Y8.653 E3.3604
G1 X20.591 Y9.462 E3.3944
G1 X19.947 Y10.191 E3.4283
G1 X19.227 Y10.842 E3.4622
G1 X18.460 Y11.413 E3.4956
G1 X17.676 Y11.903 E3.5279
G1 X16.906 Y12.310 E3.5583
G1 X16.150 Y12.644 E3.5872
G1 X15.411 Y12.915 E3.6147
G1 X14.688 Y13.132 E3.6411
G1 X13.984 Y13.306 E3.6664
G1 X13.280 Y13.440 E3.6914
G1 X12.555 Y13.539 E3.7170
G1 X11.789 Y13.607 E3.7438
G1 X10.962 Y13.650 E3.7727
G1 X10.090 Y13.665 E3.8032
G1 X9.187 Y13.652 E3.8347
G1 X8.269 Y13.611 E3.8668
G1 X4.427 Y13.275 E4.0015
G1 X3.363 Y13.215 E4.0387
G1 X1.138 Y13.154 E4.1165
; layer 3, Z = 0.600
G1 X1.140 Y13.159 F4800
G1 Z0.550 F1002
G92 E0
G1 X-1.140 Y13.159 E0.0796 F2400
G1 X-3.368 Y13.220 E0.1575
G1 X-4.434 Y13.280 E0.1947
G1 X-8.278 Y13.614 E0.3295
G1 X-9.197 Y13.654 E0.3616
G1 X-10.099 Y13.665 E0.3931
G1 X-10.972 Y13.649 E0.4236
G1 X-11.798 Y13.605 E0.4525
G1 X-12.565 Y13.536 E0.4794
G1 X-13.290 Y13.436 E0.5050
G1 X-13.995 Y13.302 E0.5300
G1 X-14.701 Y13.129 E0.5554
G1 X-15.425 Y12.911 E0.5818
G1 X-16.165 Y12.640 E0.6093
G1 X-16.922 Y12.306 E0.6382
G1 X-17.692 Y11.899 E0.6687
G1 X-18.475 Y11.410 E0.7009
G1 X-19.241 Y10.840 E0.7342
G1 X-19.960 Y10.191 E0.7681
G1 X-20.602 Y9.462 E0.8020
G1 X-21.143 Y8.653 E0.8360
G1 X-21.585 Y7.792 E0.8698
G1 X-21.927 Y6.911 E0.9028
G1 X-22.172 Y6.042 E0.9343
G1 X-22.319 Y5.220 E0.9635
G1 X-22.382 Y4.419 E0.9915
G1 X-22.371 Y3.616 E1.0196
G1 X-22.299 Y2.786 E1.0487
G1 X-22.177 Y1.912 E1.0795
G1 X-21.983 Y1.020 E1.1114
G1 X-21.696 Y0.132 E1.1440
G1 X-21.295 Y-0.729 E1.1771
G1 X-20.757 Y-1.545 E1.2112
G1 X-20.101 Y-2.299 E1.2462
G1 X-19.348 Y-2.973 E1.2815
G1 X-18.521 Y-3.546 E1.3166
G1 X-17.634 Y-4.004 E1.3515
G1 X-16.718 Y-4.424 E1.3867
G1 X-15.812 Y-4.883 E1.4221
G1 X-14.961 Y-5.460 E1.4580
G1 X-14.220 Y-6.226 E1.4952
G1 X-13.563 Y-7.105 E1.5336
G1 X-12.340 Y-8.943 E1.6107
G1 X-11.700 Y-9.782 E1.6475
G1 X-11.032 Y-10.541 E1.6828
G1 X-10.342 Y-11.206 E1.7163
G1 X-9.638 Y-11.765 E1.7477
G1 X-8.923 Y-12.209 E1.7771
G1 X-8.199 Y-12.563 E1.8052
G1 X-7.468 Y-12.849 E1.8327
G1 X-6.733 Y-13.091 E1.8597
G1 X-6.001 Y-13.309 E1.8864
G1 X-5.274 Y-13.500 E1.9126
G1 X-4.554 Y-13.660 E1.9383
G1 X-3.840 Y-13.785 E1.9637
G1 X-3.129 Y-13.875 E1.9887
G1 X-2.449 Y-13.934 E2.0125
G1 X-1.829 Y-13.971 E2.0342
G1 X-0.553 Y-14.011 E2.0788
G1 X0.564 Y-14.011 E2.1178
G1 X1.375 Y-13.989 E2.1461
G1 X2.450 Y-13.934 E2.1837
G1 X3.129 Y-13.875 E2.2075
G1 X3.840 Y-13.785 E2.2326
G1 X4.554 Y-13.660 E2.2579
G1 X5.274 Y-13.500 E2.2837
G1 X6.001 Y-13.309 E2.3099
G1 X6.733 Y-13.091 E2.3366
G1 X7.468 Y-12.849 E2.3636
G1 X8.199 Y-12.563 E2.3910
G1 X8.923 Y-12.209 E2.4192
G1 X9.638 Y-11.765 E2.4485
G1 X10.342 Y-11.206 E2.4799
G1 X11.032 Y-10.541 E2.5134
G1 X11.700 Y-9.782 E2.5487
G1 X12.340 Y-8.943 E2.5855
G1 X13.563 Y-7.105 E2.6627
G1 X14.220 Y-6.226 E2.7010
G1 X14.961 Y-5.460 E2.7382
G1 X15.812 Y-4.883 E2.7741
G1 X16.718 Y-4.424 E2.8096
G1 X17.634 Y-4.004 E2.8448
G1 X18.521 Y-3.546 E2.8796
G1 X19.348 Y-2.973 E2.9148
G1 X20.101 Y-2.299 E2.9500
G1 X20.757 Y-1.545 E2.9850
G1 X21.295 Y-0.729 E3.0191
G1 X21.696 Y0.132 E3.0523
G1 X21.983 Y1.020 E3.0849
G1 X22.177 Y1.912 E3.1167
G1 X22.299 Y2.786 E3.1476
G1 X22.371 Y3.616 E3.1767
G1 X22.382 Y4.419 E3.2047
G1 X22.319 Y5.220 E3.2328
G1 X22.172 Y6.042 E3.2619
G1 X21.927 Y6.911 E3.2934
G1 X21.585 Y7.792 E3.3265
G1 X21.143 Y8.653 E3.3603
G1 X20.602 Y9.462 E3.3942
G1 X19.960 Y10.191 E3.4282
G1 X19.241 Y10.840 E3.4620
G1 X18.475 Y11.410 E3.4953
G1 X17.692 Y11.899 E3.5276
G1 X16.922 Y12.306 E3.5580
G1 X16.165 Y12.640 E3.5869
G1 X15.425 Y12.911 E3.6144
G1 X14.701 Y13.129 E3.6408
G1 X13.995 Y13.302 E3.6662
G1 X13.290 Y13.436 E3.6913
G1 X12.565 Y13.536 E3.7168
G1 X11.798 Y13.605 E3.7437
G1 X10.972 Y13.649 E3.7726
G1 X10.099 Y13.665 E3.8031
G1 X9.197 Y13.654 E3.8346
G1 X8.278 Y13.614 E3.8667
G1 X4.434 Y13.280 E4.0015
G1 X3.368 Y13.220 E4.0388
G1 X1.140 Y13.159 E4.1166
; layer 4, Z = 0.800
G1 X1.142 Y13.160 F4800
G1 Z0.750 F1002
G92 E0
G1 X-1.142 Y13.160 E0.0798 F2400
G1 X-3.375 Y13.222 E0.1578
G1 X-4.441 Y13.282 E0.1951
G1 X-8.289 Y13.614 E0.3299
G1 X-9.207 Y13.652 E0.3620
G1 X-10.109 Y13.662 E0.3936
G1 X-10.981 Y13.644 E0.4240
G1 X-11.808 Y13.599 E0.4529
G1 X-12.575 Y13.529 E0.4798
G1 X-13.301 Y13.430 E0.5054
G1 X-14.007 Y13.295 E0.5305
G1 X-14.713 Y13.122 E0.5559
G1 X-15.438 Y12.904 E0.5824
G1 X-16.180 Y12.633 E0.6099
G1 X-16.936 Y12.299 E0.6388
G1 X-17.707 Y11.893 E0.6692
G1 X-18.488 Y11.406 E0.7014
G1 X-19.252 Y10.838 E0.7346
G1 X-19.969 Y10.190 E0.7683
G1 X-20.610 Y9.463 E0.8022
