; G-Code generated by Simplify3D(R) Version 4.0.1
; Jul 26, 2018 at 6:56:39 PM
; Settings Summary
;   processName,Process1
;   applyToModels,FLATFOOT_StanfordBunny_jmil_HIGH_RES_Smoothed
;   profileName,BIQU-M_020 (modified)
;   profileVersion,2018-07-05 23:05:51
;   baseProfile,Default
;   printMaterial,PLA
;   printQuality,Medium
;   printExtruders,
;   extruderName,Extruder 1
;   extruderToolheadNumber,0
;   extruderDiameter,0.4
;   extruderAutoWidth,0
;   extruderWidth,0.4
;   extrusionMultiplier,1.05
;   extruderUseRetract,0
;   extruderRetractionDistance,1
;   extruderExtraRestartDistance,0
;   extruderRetractionZLift,0
;   extruderRetractionSpeed,1800
;   extruderUseCoasting,0
;   extruderCoastingDistance,0.2
;   extruderUseWipe,0
;   extruderWipeDistance,5
;   primaryExtruder,0
;   layerHeight,0.2
;   topSolidLayers,2
;   bottomSolidLayers,2
;   perimeterOutlines,2
;   printPerimetersInsideOut,1
;   startPointOption,2
;   startPointOriginX,0
;   startPointOriginY,0
;   sequentialIslands,0
;   spiralVaseMode,0
;   firstLayerHeightPercentage,100
;   firstLayerWidthPercentage,150
;   firstLayerUnderspeed,0.35
;   useRaft,0
;   raftExtruder,0
;   raftTopLayers,3
;   raftBaseLayers,2
;   raftOffset,3
;   raftSeparationDistance,0.14
;   raftTopInfill,100
;   aboveRaftSpeedMultiplier,0.3
;   useSkirt,0
;   skirtExtruder,0
;   skirtLayers,1
;   skirtOutlines,2
;   skirtOffset,4
;   usePrimePillar,0
;   primePillarExtruder,999
;   primePillarWidth,12
;   primePillarLocation,7
;   primePillarSpeedMultiplier,1
;   useOozeShield,0
;   oozeShieldExtruder,999
;   oozeShieldOffset,2
;   oozeShieldOutlines,1
;   oozeShieldSidewallShape,1
;   oozeShieldSidewallAngle,30
;   oozeShieldSpeedMultiplier,1
;   infillExtruder,0
;   internalInfillPattern,Rectilinear
;   externalInfillPattern,Rectilinear
;   infillPercentage,5
;   outlineOverlapPercentage,15
;   infillExtrusionWidthPercentage,100
;   minInfillLength,5
;   infillLayerInterval,1
;   internalInfillAngles,45,-45
;   overlapInternalInfillAngles,0
;   externalInfillAngles,45,-45
;   generateSupport,0
;   supportExtruder,0
;   supportInfillPercentage,30
;   supportExtraInflation,0
;   supportBaseLayers,0
;   denseSupportExtruder,0
;   denseSupportLayers,0
;   denseSupportInfillPercentage,70
;   supportLayerInterval,1
;   supportHorizontalPartOffset,0.3
;   supportUpperSeparationLayers,1
;   supportLowerSeparationLayers,1
;   supportType,0
;   supportGridSpacing,4
;   maxOverhangAngle,45
;   supportAngles,0
;   temperatureName,Extruder 1
;   temperatureNumber,0
;   temperatureSetpointCount,1
;   temperatureSetpointLayers,1
;   temperatureSetpointTemperatures,200
;   temperatureStabilizeAtStartup,1
;   temperatureHeatedBed,0
;   temperatureRelayBetweenLayers,0
;   temperatureRelayBetweenLoops,0
;   fanLayers,1,2
;   fanSpeeds,0,100
;   blipFanToFullPower,0
;   adjustSpeedForCooling,1
;   minSpeedLayerTime,15
;   minCoolingSpeedSlowdown,20
;   increaseFanForCooling,0
;   minFanLayerTime,45
;   maxCoolingFanSpeed,100
;   increaseFanForBridging,0
;   bridgingFanSpeed,100
;   use5D,1
;   relativeEdistances,0
;   allowEaxisZeroing,1
;   independentExtruderAxes,0
;   includeM10123,0
;   stickySupport,1
;   applyToolheadOffsets,0
;   gcodeXoffset,0
;   gcodeYoffset,0
;   gcodeZoffset,-0.05
;   overrideMachineDefinition,1
;   machineTypeOverride,1
;   strokeXoverride,100
;   strokeYoverride,100
;   strokeZoverride,100
;   originOffsetXoverride,50
;   originOffsetYoverride,50
;   originOffsetZoverride,0
;   homeXdirOverride,0
;   homeYdirOverride,0
;   homeZdirOverride,1
;   flipXoverride,1
;   flipYoverride,-1
;   flipZoverride,1
;   toolheadOffsets,0,0|0,0|0,0|0,0|0,0|0,0
;   overrideFirmwareConfiguration,1
;   firmwareTypeOverride,RepRap (Marlin/Repetier/Sprinter)
;   GPXconfigOverride,r2
;   baudRateOverride,115200
;   overridePrinterModels,0
;   printerModelsOverride
;   startingGcode,G28 ; home all axes
;   layerChangeGcode,
;   retractionGcode,
;   toolChangeGcode,
;   endingGcode,M104 S0 ; turn off extruder,M140 S0 ; turn off bed,M84 ; disable motors,G28 ; home all axes
;   exportFileFormat,gcode
;   celebration,0
;   celebrationSong,Star Wars
;   postProcessing,
;   defaultSpeed,4800
;   outlineUnderspeed,0.5
;   solidInfillUnderspeed,0.8
;   supportUnderspeed,0.8
;   rapidXYspeed,4800
;   rapidZspeed,1002
;   minBridgingArea,50
;   bridgingExtraInflation,0
;   bridgingExtrusionMultiplier,1
;   bridgingSpeedMultiplier,1
;   useFixedBridgingAngle,0
;   fixedBridgingAngle,0
;   applyBridgingToPerimeters,0
;   filamentDiameters,1.75|1.75|1.75|1.75|1.75|1.75
;   filamentPricesPerKg,46|46|46|46|46|46
;   filamentDensities,1.25|1.25|1.25|1.25|1.25|1.25
;   useMinPrintHeight,0
;   minPrintHeight,0
;   useMaxPrintHeight,0
;   maxPrintHeight,0
;   useDiaphragm,0
;   diaphragmLayerInterval,20
;   robustSlicing,1
;   mergeAllIntoSolid,0
;   onlyRetractWhenCrossingOutline,1
;   retractBetweenLayers,1
;   useRetractionMinTravel,0
;   retractionMinTravel,3
;   retractWhileWiping,0
;   onlyWipeOutlines,1
;   avoidCrossingOutline,1
;   maxMovementDetourFactor,3
;   toolChangeRetractionDistance,12
;   toolChangeExtraRestartDistance,-0.5
;   toolChangeRetractionSpeed,600
;   externalThinWallType,1
;   internalThinWallType,1
;   thinWallAllowedOverlapPercentage,10
;   singleExtrusionMinLength,1
;   singleExtrusionMinPrintingWidthPercentage,50
;   singleExtrusionMaxPrintingWidthPercentage,200
;   singleExtrusionEndpointExtension,0.2
;   horizontalSizeCompensation,0
G90
M82
M106 S0
M104 S200 T0
M109 S200 T0
G28 ; home all axes
G1 Z0.150 F1002
; process Process1
; layer 1, Z = 0.200
T0
; tool H0.200 W0.600
; inner perimeter
G1 X-3.732 Y-1.931 F4800
G92 E0
G1 X-3.987 Y-1.728 E0.0171 F1260
G1 X-4.358 Y-1.372 E0.0440
G1 X-4.435 Y-1.262 E0.0511
G1 X-4.584 Y-1.133 E0.0614
G1 X-4.815 Y-0.787 E0.0832
G1 X-4.939 Y-0.897 E0.0919
G1 X-6.122 Y0.011 E0.1700
G1 X-5.844 Y0.561 E0.2023
G1 X-6.770 Y1.103 E0.2585
G1 X-7.462 Y0.767 E0.2988
G1 X-7.690 Y0.893 E0.3125
G1 X-8.100 Y0.724 E0.3357
G1 X-8.233 Y0.716 E0.3427
G1 X-8.630 Y0.514 E0.3660
G1 X-9.552 Y0.176 E0.4175
G1 X-9.621 Y0.029 E0.4260
G1 X-9.687 Y-0.280 E0.4425
G1 X-9.850 Y-0.574 E0.4601
G1 X-10.145 Y-0.837 E0.4808
G1 X-9.782 Y-1.046 E0.5028
G1 X-10.047 Y-1.581 E0.5341
G1 X-9.620 Y-2.129 E0.5704
G1 X-9.555 Y-2.193 E0.5752
G1 X-9.481 Y-2.334 E0.5835
G1 X-9.364 Y-2.422 E0.5912
G1 X-9.185 Y-2.698 E0.6085
G1 X-8.829 Y-2.366 E0.6340
G1 X-7.776 Y-3.371 E0.7102
G1 X-7.979 Y-4.078 E0.7488
G1 X-7.990 Y-4.143 E0.7522
G1 X-7.983 Y-4.372 E0.7642
G1 X-8.098 Y-4.715 E0.7832
G1 X-8.603 Y-5.753 E0.8436
G1 X-8.823 Y-5.898 E0.8574
G1 X-8.821 Y-6.860 E0.9078
G1 X-8.211 Y-6.929 E0.9400
G1 X-8.571 Y-8.176 E1.0080
G1 X-7.458 Y-8.166 E1.0663
G1 X-7.494 Y-8.637 E1.0910
G1 X-7.119 Y-8.645 E1.1107
G1 X-6.727 Y-8.578 E1.1315
G1 X-5.843 Y-8.327 E1.1796
G1 X-5.671 Y-8.270 E1.1891
G1 X-5.352 Y-8.136 E1.2073
G1 X-4.009 Y-7.444 E1.2864
G1 X-4.113 Y-7.236 E1.2986
G1 X-4.063 Y-6.737 E1.3249
G1 X-3.943 Y-6.175 E1.3550
G1 X-3.941 Y-6.075 E1.3602
G1 X-3.836 Y-5.707 E1.3803
G1 X-3.708 Y-5.394 E1.3980
G1 X-3.738 Y-5.321 E1.4021
G1 X-3.648 Y-4.853 E1.4271
G1 X-3.873 Y-4.661 E1.4426
G1 X-3.466 Y-4.049 E1.4811
G1 X-3.498 Y-4.014 E1.4836
G1 X-3.252 Y-3.369 E1.5197
G1 X-3.260 Y-3.198 E1.5287
G1 X-3.369 Y-3.049 E1.5384
G1 X-3.674 Y-2.439 E1.5741
G1 X-3.732 Y-1.931 E1.6009
G1 X-3.837 Y-1.032 F4800
G1 X-3.896 Y-0.976 F4800
G1 X-3.981 Y-0.853 F4800
G1 X-4.126 Y-0.728 F4800
G1 X-4.248 Y-0.545 F4800
G1 X-4.445 Y-0.325 F4800
G1 X-4.878 Y-0.030 F4800
G1 X-4.968 Y-0.111 F4800
G1 X-5.355 Y0.186 F4800
G1 X-5.188 Y0.515 F4800
G1 X-4.954 Y1.041 F4800
G1 X-5.008 Y1.150 F4800
G1 X-4.810 Y1.559 F4800
G1 X-4.436 Y2.246 F4800
G1 X-4.253 Y2.519 F4800
G1 X-4.357 Y3.407 F4800
G92 E0
G1 X-3.852 Y3.840 E0.0349 F1260
G1 X-3.178 Y4.191 E0.0747
G1 X-3.288 Y4.608 E0.0973
G1 X-3.483 Y4.601 E0.1076
G1 X-3.638 Y4.801 E0.1208
G1 X-4.231 Y4.518 E0.1552
G1 X-4.476 Y4.380 E0.1700
G1 X-4.696 Y3.625 E0.2112
G1 X-4.357 Y3.407 E0.2323
G1 X-3.799 Y3.087 F4800
G1 X-3.510 Y3.334 F4800
G1 X-2.925 Y3.639 F4800
G1 X-2.521 Y3.734 F4800
G1 X-2.333 Y3.739 F4800
G1 X-1.962 Y3.794 F4800
G1 X-1.737 Y3.755 F4800
G1 X-1.399 Y3.778 F4800
G1 X-1.178 Y3.733 F4800
G1 X-0.972 Y3.752 F4800
G1 X-0.814 Y3.704 F4800
G1 X-0.574 Y3.707 F4800
G1 X-0.479 Y3.659 F4800
G1 X-0.370 Y3.633 F4800
G1 X-0.137 Y3.641 F4800
G1 X0.028 Y3.573 F4800
G1 X0.131 Y3.566 F4800
G1 X0.346 Y3.516 F4800
G1 X0.755 Y3.511 F4800
G1 X1.140 Y3.407 F4800
G1 X1.273 Y3.401 F4800
G1 X1.571 Y3.420 F4800
G1 X1.678 Y3.326 F4800
G1 X1.963 Y3.352 F4800
G1 X2.159 Y3.245 F4800
G1 X2.357 Y3.230 F4800
G1 X2.521 Y3.181 F4800
G1 X2.839 Y3.174 F4800
G1 X3.044 Y3.059 F4800
G1 X3.317 Y3.047 F4800
G1 X3.665 Y2.981 F4800
G1 X3.851 Y2.985 F4800
G1 X4.150 Y2.861 F4800
G1 X4.283 Y2.837 F4800
G1 X4.426 Y2.717 F4800
G1 X4.506 Y2.672 F4800
G1 X4.779 Y2.589 F4800
G1 X4.923 Y2.508 F4800
G1 X5.280 Y2.105 F4800
G1 X5.364 Y1.711 F4800
G1 X5.318 Y1.333 F4800
G1 X5.174 Y1.001 F4800
G1 X5.020 Y0.751 F4800
G1 X3.982 Y-0.669 F4800
G1 X3.665 Y-1.189 F4800
G1 X4.191 Y-1.491 F4800
G92 E0
G1 X4.049 Y-1.769 E0.0163 F1260
G1 X4.008 Y-1.872 E0.0221
G1 X4.041 Y-2.475 E0.0538
G1 X3.909 Y-2.783 E0.0714
G1 X4.367 Y-2.901 E0.0961
G1 X4.155 Y-3.584 E0.1336
G1 X4.203 Y-3.748 E0.1426
G1 X4.369 Y-4.033 E0.1598
G1 X4.397 Y-4.066 E0.1621
G1 X4.558 Y-4.227 E0.1740
G1 X4.760 Y-4.400 E0.1880
G1 X5.203 Y-4.474 E0.2115
G1 X5.452 Y-4.868 E0.2359
G1 X5.534 Y-4.961 E0.2424
G1 X5.786 Y-5.106 E0.2576
G1 X5.827 Y-5.165 E0.2614
G1 X6.322 Y-5.279 E0.2880
G1 X6.328 Y-5.419 E0.2953
G1 X7.071 Y-5.550 E0.3348
G1 X7.249 Y-5.197 E0.3555
G1 X7.779 Y-4.601 E0.3973
G1 X8.129 Y-4.272 E0.4224
G1 X8.292 Y-4.046 E0.4371
G1 X8.748 Y-3.828 E0.4635
G1 X8.880 Y-3.712 E0.4728
G1 X9.063 Y-3.527 E0.4864
G1 X9.161 Y-3.394 E0.4950
G1 X9.263 Y-3.008 E0.5159
G1 X9.646 Y-2.632 E0.5441
G1 X9.604 Y-2.407 E0.5560
G1 X9.582 Y-2.343 E0.5596
G1 X9.530 Y-2.205 E0.5673
G1 X9.465 Y-2.075 E0.5750
G1 X9.271 Y-1.823 E0.5916
G1 X9.109 Y-1.649 E0.6041
G1 X9.005 Y-1.558 E0.6113
G1 X8.789 Y-1.422 E0.6246
G1 X8.605 Y-1.342 E0.6352
G1 X8.392 Y-1.525 E0.6499
G1 X7.628 Y-0.987 E0.6988
G1 X7.422 Y-0.763 E0.7148
G1 X7.176 Y-0.757 E0.7277
G1 X6.792 Y-0.280 E0.7597
G1 X6.678 Y0.029 E0.7770
G1 X6.669 Y0.108 E0.7812
G1 X6.629 Y0.155 E0.7844
G1 X6.481 Y0.435 E0.8010
G1 X6.432 Y0.652 E0.8126
G1 X6.330 Y0.856 E0.8246
G1 X6.295 Y1.082 E0.8366
G1 X5.893 Y1.134 E0.8578
G1 X5.712 Y0.720 E0.8815
G1 X5.523 Y0.413 E0.9004
G1 X4.486 Y-1.006 E0.9925
G1 X4.191 Y-1.491 E1.0222
G1 X3.374 Y-2.675 F4800
G1 X3.425 Y-2.983 F4800
G1 X3.313 Y-3.255 F4800
G1 X3.599 Y-3.329 F4800
G1 X3.521 Y-3.581 F4800
G1 X3.615 Y-3.894 F4800
G1 X3.584 Y-3.995 F4800
G1 X3.744 Y-4.163 F4800
G1 X3.872 Y-4.384 F4800
G1 X3.950 Y-4.476 F4800
G1 X4.145 Y-4.672 F4800
G1 X4.471 Y-4.950 F4800
G1 X4.572 Y-4.983 F4800
G1 X4.836 Y-5.027 F4800
G1 X4.966 Y-5.233 F4800
G1 X5.105 Y-5.390 F4800
G1 X5.213 Y-5.475 F4800
G1 X5.364 Y-5.562 F4800
G1 X5.460 Y-5.701 F4800
G1 X5.738 Y-5.766 F4800
G1 X5.746 Y-5.932 F4800
G1 X6.070 Y-5.989 F4800
G1 X5.869 Y-6.382 F4800
G1 X5.942 Y-6.553 F4800
G1 X5.698 Y-6.824 F4800
G1 X5.746 Y-6.953 F4800
G1 X5.399 Y-7.345 F4800
G1 X4.991 Y-7.671 F4800
G1 X4.611 Y-7.788 F4800
G1 X4.027 Y-8.015 F4800
G1 X3.608 Y-8.205 F4800
G1 X3.587 Y-8.183 F4800
G1 X3.046 Y-8.393 F4800
G1 X2.724 Y-8.444 F4800
G1 X1.339 Y-8.827 F4800
G1 X0.642 Y-8.925 F4800
G1 X0.365 Y-8.988 F4800
G1 X0.101 Y-9.073 F4800
G1 X-0.057 Y-9.060 F4800
G1 X-0.448 Y-9.108 F4800
G1 X-0.977 Y-9.084 F4800
G1 X-1.009 Y-9.035 F4800
G1 X-1.380 Y-9.572 F4800
G92 E0
G1 X-2.132 Y-9.399 E0.0404 F1260
G1 X-2.318 Y-9.792 E0.0632
G1 X-2.027 Y-10.015 E0.0824
G1 X-1.921 Y-10.080 E0.0889
G1 X-1.668 Y-10.123 E0.1024
G1 X-1.518 Y-10.126 E0.1102
G1 X-1.043 Y-10.076 E0.1352
G1 X-1.380 Y-9.572 E0.1670
; outer perimeter
G1 X-1.166 Y-10.692 F4800
G92 E0
G1 X-0.800 Y-10.602 E0.0197 F840
G1 X-0.471 Y-10.494 E0.0379
G1 X0.352 Y-10.145 E0.0847
G1 X0.499 Y-10.143 E0.0924
G1 X1.280 Y-9.899 E0.1353
G1 X1.638 Y-9.813 E0.1546
G1 X1.806 Y-9.762 E0.1637
G1 X1.922 Y-9.702 E0.1706
G1 X2.159 Y-9.630 E0.1836
G1 X2.381 Y-9.529 E0.1963
G1 X2.606 Y-9.543 E0.2081
G1 X2.696 Y-9.515 E0.2131
G1 X3.156 Y-9.296 E0.2398
G1 X3.254 Y-9.314 E0.2450
G1 X3.620 Y-9.168 E0.2657
G1 X3.863 Y-9.193 E0.2785
G1 X4.263 Y-9.109 E0.2999
G1 X4.858 Y-9.043 E0.3312
G1 X5.189 Y-8.960 E0.3491
G1 X5.826 Y-8.843 E0.3831
G1 X5.956 Y-8.799 E0.3902
G1 X6.094 Y-8.722 E0.3985
G1 X6.335 Y-8.656 E0.4116
G1 X6.428 Y-8.600 E0.4173
G1 X6.494 Y-8.532 E0.4222
G1 X6.625 Y-8.455 E0.4302
G1 X6.892 Y-8.158 E0.4511
G1 X6.968 Y-8.049 E0.4581
G1 X7.023 Y-7.944 E0.4643
G1 X7.123 Y-7.676 E0.4793
G1 X7.480 Y-6.370 E0.5502
G1 X7.528 Y-6.062 E0.5666
G1 X7.632 Y-5.768 E0.5829
G1 X7.749 Y-5.537 E0.5964
G1 X8.210 Y-5.020 E0.6327
G1 X8.582 Y-4.669 E0.6595
G1 X8.689 Y-4.521 E0.6691
G1 X9.037 Y-4.355 E0.6893
G1 X9.123 Y-4.297 E0.6947
G1 X9.292 Y-4.149 E0.7065
G1 X9.521 Y-3.918 E0.7235
G1 X9.682 Y-3.698 E0.7378
G1 X9.733 Y-3.575 E0.7448
G1 X9.801 Y-3.321 E0.7586
G1 X10.070 Y-3.057 E0.7783
G1 X10.148 Y-2.953 E0.7851
G1 X10.209 Y-2.819 E0.7928
G1 X10.233 Y-2.675 E0.8005
G1 X10.230 Y-2.491 E0.8102
G1 X10.186 Y-2.256 E0.8227
G1 X10.148 Y-2.141 E0.8290
G1 X10.080 Y-1.964 E0.8389
G1 X9.975 Y-1.754 E0.8512
G1 X9.729 Y-1.435 E0.8723
G1 X9.527 Y-1.218 E0.8879
G1 X9.364 Y-1.075 E0.8992
G1 X9.138 Y-0.932 E0.9132
G1 X8.928 Y-0.762 E0.9274
G1 X8.756 Y-0.662 E0.9378
G1 X8.654 Y-0.710 E0.9437
G1 X8.498 Y-0.643 E0.9526
G1 X8.355 Y-0.766 E0.9625
G1 X8.026 Y-0.534 E0.9836
G1 X7.691 Y-0.170 E1.0095
G1 X7.469 Y-0.164 E1.0211
G1 X7.321 Y0.020 E1.0335
G1 X7.266 Y0.169 E1.0418
G1 X7.252 Y0.294 E1.0484
G1 X7.199 Y0.414 E1.0553
G1 X7.126 Y0.497 E1.0611
G1 X7.049 Y0.645 E1.0698
G1 X7.001 Y0.855 E1.0811
G1 X6.909 Y1.040 E1.0920
G1 X6.860 Y1.355 E1.1086
G1 X6.641 Y1.525 E1.1232
G1 X6.733 Y2.105 E1.1539
G1 X6.737 Y2.314 E1.1649
G1 X6.718 Y2.439 E1.1715
G1 X6.652 Y2.622 E1.1817
G1 X6.507 Y2.703 E1.1904
G1 X6.392 Y2.933 E1.2038
G1 X6.412 Y3.105 E1.2129
G1 X6.329 Y3.254 E1.2219
G1 X6.117 Y3.503 E1.2389
G1 X5.955 Y3.618 E1.2494
G1 X5.876 Y3.639 E1.2537
G1 X5.676 Y3.654 E1.2642
G1 X5.566 Y3.789 E1.2733
G1 X5.456 Y3.807 E1.2791
G1 X5.400 Y3.850 E1.2828
G1 X5.217 Y3.860 E1.2924
G1 X5.007 Y3.955 E1.3045
G1 X4.930 Y3.975 E1.3087
G1 X4.552 Y3.989 E1.3285
G1 X4.459 Y4.045 E1.3342
G1 X4.288 Y4.098 E1.3435
G1 X4.028 Y4.124 E1.3572
G1 X3.842 Y4.116 E1.3670
G1 X3.744 Y4.179 E1.3731
G1 X3.625 Y4.215 E1.3796
G1 X3.320 Y4.230 E1.3956
G1 X3.127 Y4.217 E1.4058
G1 X2.905 Y4.288 E1.4180
G1 X2.763 Y4.282 E1.4254
G1 X2.594 Y4.310 E1.4344
G1 X2.247 Y4.279 E1.4526
G1 X1.941 Y4.296 E1.4687
G1 X1.665 Y4.277 E1.4832
G1 X1.523 Y4.321 E1.4909
G1 X1.360 Y4.328 E1.4995
G1 X1.220 Y4.372 E1.5072
G1 X1.069 Y4.361 E1.5151
G1 X0.922 Y4.418 E1.5234
G1 X0.770 Y4.424 E1.5313
G1 X0.527 Y4.525 E1.5451
G1 X0.396 Y4.554 E1.5522
G1 X0.255 Y4.651 E1.5611
G1 X0.035 Y4.604 E1.5729
G1 X-0.273 Y4.809 E1.5923
G1 X-0.403 Y4.868 E1.5998
G1 X-0.868 Y5.003 E1.6251
G1 X-1.555 Y5.161 E1.6621
G1 X-2.005 Y4.895 E1.6895
G1 X-2.409 Y5.161 E1.7148
G1 X-2.734 Y5.087 E1.7322
G1 X-2.901 Y5.222 E1.7435
G1 X-3.197 Y5.212 E1.7590
G1 X-3.311 Y5.358 E1.7687
G1 X-3.850 Y5.348 E1.7970
G1 X-3.948 Y5.318 E1.8024
G1 X-4.508 Y5.051 E1.8349
G1 X-4.775 Y4.900 E1.8509
G1 X-4.944 Y4.763 E1.8623
G1 X-5.014 Y4.678 E1.8681
G1 X-5.160 Y4.178 E1.8954
G1 X-5.332 Y3.989 E1.9088
G1 X-5.463 Y3.720 E1.9245
G1 X-5.538 Y3.384 E1.9425
G1 X-5.418 Y3.374 E1.9489
G1 X-5.516 Y2.910 E1.9737
G1 X-5.768 Y2.571 E1.9958
G1 X-5.731 Y2.353 E2.0074
G1 X-5.865 Y1.961 E2.0291
G1 X-6.150 Y1.759 E2.0474
G1 X-6.347 Y1.551 E2.0624
G1 X-6.660 Y1.734 E2.0814
G1 X-6.819 Y1.746 E2.0898
G1 X-7.444 Y1.443 E2.1262
G1 X-7.652 Y1.558 E2.1386
G1 X-8.236 Y1.317 E2.1717
G1 X-8.370 Y1.309 E2.1788
G1 X-8.426 Y1.291 E2.1819
G1 X-8.871 Y1.065 E2.2080
G1 X-9.619 Y0.790 E2.2497
G1 X-9.793 Y0.750 E2.2591
G1 X-9.940 Y0.648 E2.2685
G1 X-10.011 Y0.574 E2.2739
G1 X-10.059 Y0.506 E2.2782
G1 X-10.194 Y0.223 E2.2946
G1 X-10.256 Y-0.068 E2.3102
G1 X-10.326 Y-0.194 E2.3178
G1 X-10.526 Y-0.373 E2.3318
