; G-Code generated by Simplify3D(R) Version 4.0.1
; Jul 13, 2018 at 6:24:00 PM
; Settings Summary
;   processName,Process1
;   applyToModels,Woman
;   profileName,BIQU-M (modified)
;   profileVersion,2018-05-21 13:09:20
;   baseProfile,Default
;   printMaterial,PLA
;   printQuality,Medium
;   printExtruders,
;   extruderName,Extruder 1
;   extruderToolheadNumber,0
;   extruderDiameter,0.4
;   extruderAutoWidth,0
;   extruderWidth,0.4
;   extrusionMultiplier,0.95
;   extruderUseRetract,1
;   extruderRetractionDistance,1
;   extruderExtraRestartDistance,0
;   extruderRetractionZLift,0
;   extruderRetractionSpeed,1800
;   extruderUseCoasting,0
;   extruderCoastingDistance,0.2
;   extruderUseWipe,0
;   extruderWipeDistance,5
;   primaryExtruder,0
;   layerHeight,0.15
;   topSolidLayers,0
;   bottomSolidLayers,0
;   perimeterOutlines,1
;   printPerimetersInsideOut,1
;   startPointOption,2
;   startPointOriginX,0
;   startPointOriginY,0
;   sequentialIslands,0
;   spiralVaseMode,0
;   firstLayerHeightPercentage,200
;   firstLayerWidthPercentage,100
;   firstLayerUnderspeed,0.35
;   useRaft,0
;   raftExtruder,0
;   raftTopLayers,3
;   raftBaseLayers,2
;   raftOffset,3
;   raftSeparationDistance,0.14
;   raftTopInfill,100
;   aboveRaftSpeedMultiplier,0.3
;   useSkirt,0
;   skirtExtruder,0
;   skirtLayers,1
;   skirtOutlines,2
;   skirtOffset,4
;   usePrimePillar,0
;   primePillarExtruder,999
;   primePillarWidth,12
;   primePillarLocation,7
;   primePillarSpeedMultiplier,1
;   useOozeShield,0
;   oozeShieldExtruder,999
;   oozeShieldOffset,2
;   oozeShieldOutlines,1
;   oozeShieldSidewallShape,1
;   oozeShieldSidewallAngle,30
;   oozeShieldSpeedMultiplier,1
;   infillExtruder,0
;   internalInfillPattern,Rectilinear
;   externalInfillPattern,Rectilinear
;   infillPercentage,0
;   outlineOverlapPercentage,15
;   infillExtrusionWidthPercentage,100
;   minInfillLength,5
;   infillLayerInterval,1
;   internalInfillAngles,45,-45
;   overlapInternalInfillAngles,1
;   externalInfillAngles,45,-45
;   generateSupport,0
;   supportExtruder,0
;   supportInfillPercentage,30
;   supportExtraInflation,0
;   supportBaseLayers,0
;   denseSupportExtruder,0
;   denseSupportLayers,0
;   denseSupportInfillPercentage,70
;   supportLayerInterval,1
;   supportHorizontalPartOffset,0.3
;   supportUpperSeparationLayers,1
;   supportLowerSeparationLayers,1
;   supportType,0
;   supportGridSpacing,4
;   maxOverhangAngle,45
;   supportAngles,0
;   temperatureName,Extruder 1
;   temperatureNumber,0
;   temperatureSetpointCount,1
;   temperatureSetpointLayers,1
;   temperatureSetpointTemperatures,190
;   temperatureStabilizeAtStartup,1
;   temperatureHeatedBed,0
;   temperatureRelayBetweenLayers,0
;   temperatureRelayBetweenLoops,0
;   fanLayers,1,2
;   fanSpeeds,0,100
;   blipFanToFullPower,0
;   adjustSpeedForCooling,1
;   minSpeedLayerTime,15
;   minCoolingSpeedSlowdown,20
;   increaseFanForCooling,0
;   minFanLayerTime,45
;   maxCoolingFanSpeed,100
;   increaseFanForBridging,0
;   bridgingFanSpeed,100
;   use5D,1
;   relativeEdistances,0
;   allowEaxisZeroing,1
;   independentExtruderAxes,0
;   includeM10123,0
;   stickySupport,1
;   applyToolheadOffsets,0
;   gcodeXoffset,0
;   gcodeYoffset,0
;   gcodeZoffset,-0.1
;   overrideMachineDefinition,1
;   machineTypeOverride,1
;   strokeXoverride,100
;   strokeYoverride,100
;   strokeZoverride,100
;   originOffsetXoverride,50
;   originOffsetYoverride,50
;   originOffsetZoverride,0
;   homeXdirOverride,0
;   homeYdirOverride,0
;   homeZdirOverride,1
;   flipXoverride,1
;   flipYoverride,-1
;   flipZoverride,1
;   toolheadOffsets,0,0|0,0|0,0|0,0|0,0|0,0
;   overrideFirmwareConfiguration,1
;   firmwareTypeOverride,RepRap (Marlin/Repetier/Sprinter)
;   GPXconfigOverride,r2
;   baudRateOverride,115200
;   overridePrinterModels,0
;   printerModelsOverride
;   startingGcode,G28 ; home all axes
;   layerChangeGcode,
;   retractionGcode,
;   toolChangeGcode,
;   endingGcode,M104 S0 ; turn off extruder,M140 S0 ; turn off bed,M84 ; disable motors,G28 ; home all axes
;   exportFileFormat,gcode
;   celebration,0
;   celebrationSong,Star Wars
;   postProcessing,
;   defaultSpeed,3600
;   outlineUnderspeed,0.5
;   solidInfillUnderspeed,0.8
;   supportUnderspeed,0.8
;   rapidXYspeed,4800
;   rapidZspeed,1002
;   minBridgingArea,50
;   bridgingExtraInflation,0
;   bridgingExtrusionMultiplier,1
;   bridgingSpeedMultiplier,1
;   useFixedBridgingAngle,0
;   fixedBridgingAngle,0
;   applyBridgingToPerimeters,0
;   filamentDiameters,1.75|1.75|1.75|1.75|1.75|1.75
;   filamentPricesPerKg,46|46|46|46|46|46
;   filamentDensities,1.25|1.25|1.25|1.25|1.25|1.25
;   useMinPrintHeight,0
;   minPrintHeight,0
;   useMaxPrintHeight,1
;   maxPrintHeight,10
;   useDiaphragm,0
;   diaphragmLayerInterval,20
;   robustSlicing,1
;   mergeAllIntoSolid,0
;   onlyRetractWhenCrossingOutline,1
;   retractBetweenLayers,1
;   useRetractionMinTravel,0
;   retractionMinTravel,3
;   retractWhileWiping,0
;   onlyWipeOutlines,1
;   avoidCrossingOutline,1
;   maxMovementDetourFactor,3
;   toolChangeRetractionDistance,12
;   toolChangeExtraRestartDistance,-0.5
;   toolChangeRetractionSpeed,600
;   externalThinWallType,0
;   internalThinWallType,2
;   thinWallAllowedOverlapPercentage,10
;   singleExtrusionMinLength,1
;   singleExtrusionMinPrintingWidthPercentage,50
;   singleExtrusionMaxPrintingWidthPercentage,200
;   singleExtrusionEndpointExtension,0.2
;   horizontalSizeCompensation,0
G90
M82
M106 S0
M104 S190 T0
M109 S190 T0
G28 ; home all axes
G92 E0
G1 E-1.0000 F1800
G1 Z0.200 F1002
; process Process1
; layer 1, Z = 0.300
T0
; tool H0.300 W0.400
; outer perimeter
G1 X0.973 Y-2.625 F4800
G1 E0.0000 F540
G92 E0
G1 X1.185 Y-2.563 E0.0105 F360
G1 X1.281 Y-2.606 E0.0154
G1 X1.577 Y-2.614 E0.0294
G1 X1.687 Y-2.832 E0.0410
G1 X1.803 Y-3.165 E0.0577
G1 X2.102 Y-3.743 E0.0886
G1 X2.641 Y-4.559 E0.1349
G1 X2.763 Y-4.717 E0.1444
G1 X2.843 Y-4.779 E0.1492
G1 X2.986 Y-4.990 E0.1613
G1 X3.034 Y-5.031 E0.1642
G1 X3.262 Y-5.396 E0.1847
G1 X3.736 Y-5.957 E0.2195
G1 X4.709 Y-6.927 E0.2846
G1 X5.150 Y-7.322 E0.3126
G1 X5.800 Y-7.701 E0.3483
G1 X5.934 Y-7.753 E0.3551
G1 X6.152 Y-7.804 E0.3657
G1 X6.241 Y-7.882 E0.3714
G1 X6.320 Y-7.902 E0.3752
G1 X6.473 Y-7.971 E0.3832
G1 X6.654 Y-8.028 E0.3921
G1 X7.019 Y-8.129 E0.4101
G1 X7.295 Y-8.173 E0.4234
G1 X7.705 Y-8.290 E0.4436
G1 X8.036 Y-8.340 E0.4594
G1 X8.431 Y-8.354 E0.4782
G1 X9.409 Y-8.320 E0.5245
G1 X9.887 Y-8.259 E0.5474
G1 X10.375 Y-8.125 E0.5713
G1 X10.721 Y-8.003 E0.5887
G1 X11.118 Y-7.830 E0.6093
G1 X11.194 Y-7.775 E0.6137
G1 X11.348 Y-7.713 E0.6216
G1 X11.466 Y-7.646 E0.6280
G1 X12.084 Y-7.263 E0.6625
G1 X12.519 Y-6.912 E0.6890
G1 X12.723 Y-6.721 E0.7022
G1 X12.964 Y-6.465 E0.7189
G1 X13.552 Y-5.808 E0.7607
G1 X13.725 Y-5.585 E0.7741
G1 X14.240 Y-4.807 E0.8183
G1 X14.735 Y-3.906 E0.8670
G1 X14.812 Y-3.683 E0.8782
G1 X14.836 Y-3.562 E0.8840
G1 X15.081 Y-3.002 E0.9130
G1 X15.302 Y-2.368 E0.9448
G1 X15.452 Y-1.731 E0.9759
G1 X15.545 Y-1.433 E0.9906
G1 X15.680 Y-0.640 E1.0288
G1 X15.794 Y0.214 E1.0696
G1 X15.817 Y0.603 E1.0881
G1 X15.830 Y1.473 E1.1293
G1 X15.851 Y1.665 E1.1385
G1 X15.811 Y2.584 E1.1821
G1 X15.774 Y2.953 E1.1997
G1 X15.690 Y3.353 E1.2190
G1 X15.635 Y3.831 E1.2418
G1 X15.562 Y4.254 E1.2622
G1 X15.516 Y4.364 E1.2678
G1 X15.410 Y4.848 E1.2913
G1 X15.298 Y5.243 E1.3108
G1 X15.078 Y5.838 E1.3408
G1 X15.023 Y5.943 E1.3465
G1 X14.945 Y6.224 E1.3603
G1 X14.878 Y6.357 E1.3673
G1 X14.755 Y6.702 E1.3847
G1 X14.500 Y7.178 E1.4103
G1 X14.453 Y7.301 E1.4165
G1 X14.371 Y7.443 E1.4243
G1 X14.280 Y7.540 E1.4306
G1 X14.251 Y7.629 E1.4350
G1 X14.144 Y7.822 E1.4455
G1 X13.941 Y8.118 E1.4625
G1 X13.838 Y8.297 E1.4723
G1 X13.656 Y8.527 E1.4862
G1 X13.521 Y8.739 E1.4981
G1 X13.165 Y9.205 E1.5259
G1 X12.901 Y9.508 E1.5449
G1 X11.952 Y10.409 E1.6070
G1 X11.721 Y10.578 E1.6205
G1 X11.331 Y10.805 E1.6419
G1 X11.180 Y10.869 E1.6497
G1 X11.076 Y10.938 E1.6556
G1 X10.890 Y11.016 E1.6652
G1 X10.579 Y11.182 E1.6819
G1 X10.167 Y11.318 E1.7024
G1 X10.021 Y11.380 E1.7099
G1 X9.420 Y11.552 E1.7396
G1 X8.844 Y11.642 E1.7672
G1 X8.452 Y11.663 E1.7858
G1 X7.694 Y11.642 E1.8218
G1 X7.071 Y11.598 E1.8514
G1 X6.767 Y11.552 E1.8660
G1 X6.705 Y11.514 E1.8694
G1 X6.241 Y11.430 E1.8917
G1 X5.929 Y11.342 E1.9071
G1 X5.352 Y11.128 E1.9363
G1 X5.131 Y11.026 E1.9478
G1 X4.891 Y10.868 E1.9614
G1 X4.759 Y10.814 E1.9682
G1 X4.468 Y10.638 E1.9843
G1 X3.998 Y10.385 E2.0096
G1 X3.907 Y10.321 E2.0148
G1 X3.745 Y10.164 E2.0256
G1 X3.302 Y9.811 E2.0524
G1 X2.778 Y9.729 E2.0775
G1 X2.610 Y9.916 E2.0895
G1 X2.573 Y10.017 E2.0946
G1 X2.565 Y10.022 E2.0950
G1 X2.298 Y10.485 E2.1203
G1 X2.254 Y10.532 E2.1234
G1 X2.142 Y10.714 E2.1335
G1 X2.091 Y10.760 E2.1368
G1 X1.927 Y11.055 E2.1528
G1 X1.722 Y11.348 E2.1697
G1 X1.687 Y11.375 E2.1718
G1 X1.505 Y11.653 E2.1876
G1 X0.742 Y12.461 E2.2402
G1 X0.541 Y12.632 E2.2527
G1 X0.177 Y12.880 E2.2736
G1 X-0.209 Y13.189 E2.2970
G1 X-0.471 Y13.324 E2.3110
G1 X-0.513 Y13.365 E2.3138
G1 X-0.789 Y13.526 E2.3290
G1 X-0.985 Y13.679 E2.3407
G1 X-1.099 Y13.749 E2.3471
G1 X-1.643 Y14.013 E2.3757
G1 X-2.154 Y14.203 E2.4016
G1 X-2.360 Y14.222 E2.4114
G1 X-2.776 Y14.310 E2.4315
G1 X-2.988 Y14.322 E2.4416
G1 X-3.090 Y14.377 E2.4471
G1 X-3.348 Y14.417 E2.4595
G1 X-3.740 Y14.440 E2.4781
G1 X-4.726 Y14.431 E2.5248
G1 X-4.925 Y14.411 E2.5343
G1 X-5.120 Y14.363 E2.5438
G1 X-5.188 Y14.360 E2.5470
G1 X-5.299 Y14.321 E2.5526
G1 X-5.703 Y14.272 E2.5719
G1 X-6.070 Y14.185 E2.5898
G1 X-6.454 Y14.051 E2.6090
G1 X-6.747 Y13.936 E2.6240
G1 X-7.660 Y13.507 E2.6718
G1 X-8.183 Y13.207 E2.7004
G1 X-8.882 Y12.742 E2.7402
G1 X-9.238 Y12.460 E2.7617
G1 X-9.672 Y12.072 E2.7893
G1 X-10.079 Y11.675 E2.8162
G1 X-10.671 Y11.002 E2.8587
G1 X-11.031 Y10.556 E2.8859
G1 X-11.327 Y10.147 E2.9098
G1 X-11.635 Y9.658 E2.9372
G1 X-11.861 Y9.273 E2.9583
G1 X-11.960 Y9.065 E2.9692
G1 X-12.114 Y8.819 E2.9830
G1 X-12.686 Y7.606 E3.0465
G1 X-12.884 Y7.021 E3.0758
G1 X-13.163 Y6.043 E3.1240
G1 X-13.207 Y5.834 E3.1341
G1 X-13.215 Y5.701 E3.1405
G1 X-13.263 Y5.540 E3.1484
G1 X-13.423 Y4.723 E3.1879
G1 X-13.506 Y3.688 E3.2371
G1 X-13.503 Y2.686 E3.2846
G1 X-13.488 Y2.422 E3.2971
G1 X-13.363 Y1.495 E3.3415
G1 X-13.249 Y0.887 E3.3708
G1 X-12.899 Y-0.263 E3.4277
G1 X-12.816 Y-0.421 E3.4362
G1 X-12.649 Y-0.834 E3.4573
G1 X-12.530 Y-1.053 E3.4691
G1 X-12.412 Y-1.317 E3.4829
G1 X-12.318 Y-1.487 E3.4921
G1 X-12.235 Y-1.650 E3.5007
G1 X-12.047 Y-1.929 E3.5167
G1 X-11.513 Y-2.647 E3.5591
G1 X-11.373 Y-2.798 E3.5689
G1 X-11.244 Y-2.986 E3.5796
G1 X-11.023 Y-3.245 E3.5958
G1 X-10.622 Y-3.647 E3.6227
G1 X-10.232 Y-3.979 E3.6470
G1 X-10.140 Y-4.074 E3.6532
G1 X-9.634 Y-4.436 E3.6827
G1 X-9.491 Y-4.512 E3.6904
G1 X-9.292 Y-4.664 E3.7023
G1 X-9.118 Y-4.748 E3.7114
G1 X-8.857 Y-4.925 E3.7264
G1 X-8.364 Y-5.172 E3.7525
G1 X-7.824 Y-5.404 E3.7804
G1 X-7.373 Y-5.572 E3.8032
G1 X-6.825 Y-5.735 E3.8303
G1 X-5.976 Y-5.909 E3.8713
G1 X-5.558 Y-5.958 E3.8913
G1 X-5.200 Y-5.986 E3.9083
G1 X-4.756 Y-5.993 E3.9294
G1 X-3.789 Y-5.895 E3.9754
G1 X-3.088 Y-5.752 E4.0093
G1 X-2.760 Y-5.666 E4.0254
G1 X-2.540 Y-5.603 E4.0363
G1 X-2.392 Y-5.534 E4.0440
G1 X-2.180 Y-5.470 E4.0545
G1 X-2.007 Y-5.373 E4.0639
G1 X-1.703 Y-5.232 E4.0798
G1 X-1.509 Y-5.118 E4.0904
G1 X-0.775 Y-4.612 E4.1327
G1 X-0.519 Y-4.400 E4.1485
G1 X-0.256 Y-4.155 E4.1655
G1 X0.334 Y-3.539 E4.2059
G1 X0.687 Y-3.082 E4.2333
G1 X0.973 Y-2.625 E4.2589
G92 E0
G1 E-1.0000 F1800
; layer 2, Z = 0.450
M106 S255
; tool H0.150 W0.400
G1 X0.980 Y-2.858 F4800
G1 Z0.350 F1002
G1 E0.0000 F1800
G92 E0
G1 X1.210 Y-2.872 E0.0055 F362
G1 X1.616 Y-3.017 E0.0157
G1 X2.020 Y-3.787 E0.0363
G1 X2.518 Y-4.575 E0.0584
G1 X3.022 Y-5.270 E0.0787
G1 X3.579 Y-5.970 E0.0999
G1 X3.947 Y-6.379 E0.1130
G1 X4.496 Y-6.929 E0.1314
G1 X4.941 Y-7.302 E0.1451
G1 X5.159 Y-7.453 E0.1514
G1 X5.767 Y-7.798 E0.1680
G1 X6.328 Y-8.039 E0.1825
G1 X6.867 Y-8.220 E0.1959
G1 X7.324 Y-8.337 E0.2071
G1 X7.694 Y-8.414 E0.2161
G1 X8.348 Y-8.491 E0.2317
G1 X9.091 Y-8.494 E0.2493
G1 X9.675 Y-8.443 E0.2632
G1 X10.232 Y-8.321 E0.2767
G1 X10.553 Y-8.223 E0.2846
G1 X11.058 Y-8.030 E0.2975
G1 X11.342 Y-7.896 E0.3049
G1 X11.602 Y-7.751 E0.3119
G1 X12.194 Y-7.373 E0.3286
G1 X12.558 Y-7.090 E0.3395
G1 X12.784 Y-6.886 E0.3467
G1 X13.156 Y-6.515 E0.3592
G1 X13.538 Y-6.091 E0.3727
G1 X13.699 Y-5.900 E0.3786
G1 X13.999 Y-5.492 E0.3906
G1 X14.477 Y-4.744 E0.4117
G1 X14.878 Y-3.986 E0.4320
G1 X14.960 Y-3.804 E0.4367
G1 X15.208 Y-3.194 E0.4523
G1 X15.437 Y-2.550 E0.4685
G1 X15.690 Y-1.640 E0.4909
G1 X15.875 Y-0.691 E0.5138
G1 X15.987 Y0.142 E0.5337
G1 X16.023 Y0.650 E0.5458
G1 X16.054 Y1.426 E0.5642
G1 X16.031 Y2.230 E0.5833
G1 X15.954 Y3.067 E0.6032
G1 X15.897 Y3.495 E0.6134
G1 X15.783 Y4.139 E0.6289
G1 X15.669 Y4.641 E0.6411
G1 X15.372 Y5.597 E0.6648
G1 X15.056 Y6.446 E0.6863
G1 X14.915 Y6.764 E0.6946
G1 X14.482 Y7.578 E0.7164
G1 X14.088 Y8.229 E0.7344
G1 X13.615 Y8.900 E0.7539
G1 X13.356 Y9.225 E0.7637
G1 X12.968 Y9.656 E0.7775
G1 X12.569 Y10.045 E0.7907
G1 X12.154 Y10.399 E0.8036
G1 X11.750 Y10.693 E0.8154
G1 X11.417 Y10.895 E0.8247
G1 X11.003 Y11.122 E0.8359
G1 X10.624 Y11.297 E0.8458
G1 X10.366 Y11.393 E0.8523
G1 X9.615 Y11.615 E0.8708
G1 X9.235 Y11.702 E0.8801
G1 X8.727 Y11.779 E0.8923
G1 X8.454 Y11.792 E0.8987
G1 X7.840 Y11.783 E0.9133
G1 X7.453 Y11.750 E0.9225
G1 X6.886 Y11.673 E0.9361
G1 X6.297 Y11.546 E0.9503
G1 X5.916 Y11.431 E0.9598
G1 X5.478 Y11.285 E0.9707
G1 X5.154 Y11.147 E0.9791
G1 X4.285 Y10.672 E1.0025
G1 X3.970 Y10.472 E1.0114
G1 X3.311 Y9.961 E1.0311
G1 X2.733 Y9.896 E1.0449
G1 X2.258 Y10.704 E1.0671
G1 X2.044 Y11.027 E1.0763
G1 X1.549 Y11.648 E1.0951
G1 X0.787 Y12.478 E1.1218
G1 X0.534 Y12.711 E1.1300
G1 X-0.231 Y13.306 E1.1529
G1 X-0.977 Y13.736 E1.1733
G1 X-1.196 Y13.847 E1.1791
G1 X-1.607 Y14.036 E1.1899
G1 X-2.168 Y14.254 E1.2041
G1 X-2.580 Y14.356 E1.2142
G1 X-3.109 Y14.463 E1.2270
G1 X-3.547 Y14.520 E1.2375
G1 X-3.939 Y14.531 E1.2468
G1 X-4.738 Y14.514 E1.2657
G1 X-5.095 Y14.472 E1.2742
G1 X-5.543 Y14.388 E1.2850
G1 X-6.043 Y14.268 E1.2972
G1 X-6.494 Y14.138 E1.3083
G1 X-6.822 Y14.018 E1.3166
G1 X-7.694 Y13.615 E1.3394
G1 X-8.218 Y13.317 E1.3536
G1 X-8.681 Y13.029 E1.3666
G1 X-9.235 Y12.629 E1.3828
G1 X-9.680 Y12.262 E1.3964
G1 X-10.074 Y11.876 E1.4095
G1 X-10.483 Y11.445 E1.4236
G1 X-11.019 Y10.826 E1.4430
G1 X-11.198 Y10.598 E1.4498
G1 X-11.804 Y9.714 E1.4753
G1 X-12.149 Y9.123 E1.4915
G1 X-12.428 Y8.588 E1.5058
G1 X-12.813 Y7.754 E1.5275
G1 X-13.011 Y7.231 E1.5408
G1 X-13.192 Y6.679 E1.5546
G1 X-13.358 Y6.075 E1.5694
G1 X-13.620 Y4.710 E1.6023
G1 X-13.692 Y3.918 E1.6212
G1 X-13.707 Y3.523 E1.6305
G1 X-13.699 Y2.724 E1.6495
G1 X-13.655 Y2.133 E1.6635
G1 X-13.578 Y1.544 E1.6776
G1 X-13.494 Y1.108 E1.6881
G1 X-13.327 Y0.461 E1.7040
G1 X-13.115 Y-0.216 E1.7208
G1 X-13.003 Y-0.512 E1.7283
G1 X-12.811 Y-0.950 E1.7396
G1 X-12.538 Y-1.498 E1.7541
G1 X-12.211 Y-2.041 E1.7691
G1 X-12.040 Y-2.283 E1.7762
G1 X-11.926 Y-2.430 E1.7806
G1 X-11.614 Y-2.849 E1.7929
G1 X-11.261 Y-3.265 E1.8059
G1 X-10.856 Y-3.681 E1.8196
G1 X-10.465 Y-4.037 E1.8322
G1 X-10.252 Y-4.210 E1.8387
G1 X-9.610 Y-4.667 E1.8573
G1 X-9.408 Y-4.801 E1.8631
G1 X-8.947 Y-5.067 E1.8757
G1 X-8.405 Y-5.329 E1.8900
G1 X-7.853 Y-5.553 E1.9041
G1 X-7.281 Y-5.747 E1.9184
G1 X-6.753 Y-5.890 E1.9314
G1 X-6.312 Y-5.986 E1.9421
G1 X-5.900 Y-6.054 E1.9519
G1 X-5.488 Y-6.097 E1.9618
G1 X-5.057 Y-6.121 E1.9720
G1 X-4.716 Y-6.120 E1.9801
G1 X-4.159 Y-6.079 E1.9933
G1 X-3.341 Y-5.960 E2.0129
G1 X-2.853 Y-5.844 E2.0248
G1 X-2.533 Y-5.747 E2.0327
G1 X-2.167 Y-5.613 E2.0420
G1 X-1.796 Y-5.440 E2.0516
G1 X-1.425 Y-5.232 E2.0617
G1 X-1.004 Y-4.952 E2.0737
G1 X-0.459 Y-4.532 E2.0900
G1 X-0.013 Y-4.109 E2.1046
G1 X0.331 Y-3.743 E2.1165
G1 X0.510 Y-3.530 E2.1231
G1 X0.980 Y-2.858 E2.1425
G92 E0
G1 E-1.0000 F1800
; layer 3, Z = 0.600
G1 X0.977 Y-2.903 F4800
G1 Z0.500 F1002
G1 E0.0000 F1800
G92 E0
G1 X1.564 Y-2.931 E0.0139 F363
G1 X1.929 Y-3.650 E0.0331
G1 X2.369 Y-4.377 E0.0532
G1 X2.749 Y-4.937 E0.0692
G1 X3.506 Y-5.914 E0.0985
G1 X3.790 Y-6.242 E0.1088
G1 X4.385 Y-6.847 E0.1289
G1 X4.900 Y-7.283 E0.1449
G1 X5.303 Y-7.557 E0.1564
